!!!!SEGMENT: pl-cz--iii-99--008_dankowski-adalbert--missa-d-sanctus.krn
!!!cenid: 18xx:737
!!!COM: Dankowski, Adalbert
!!!COM-rismID: pe30000793
!!!CDT: ~1760-~1836
!!!CNT: Polish
!!!OPR: Missa D
!!!OTL: Sanctus
!!!OMV: 008
!!!PDT:
!!!AGN: Sacred; Mass
!!!SMS-siglum: PL-CZ
!!!SMS-shelfmark: III-99
!!!SMS-shelfwork: 001-008 M
!!!SMS-variant:
!!!SMS-altvar:
!!!NIFC-rismSourceID: 300000108
!!!NIFC-islandoraID: pl-cz:41870
!!!URL-pdf-islandora: https://repozytorium.nifc.pl/islandora/object/pl-cz%3A41870/datastream/PDF/view
!!!URL-scan:
!!!ONB-nifc: UWAGA: części Mszy: Kyrie, Gloria, Laudamus, Quoniam, Cum Sancto, Patrem, Et resurrexit, Sanctus, Benedictus, Agnus Dei, Dona nobis
!!!OMD:
!!!OMD-mod: Adagio
!!!AIN: 1 alto 1 bass 2 cor 2 oboe 1 organ 1 soprn 1 tenor 1 timpa 1 viola 2 violn
!!!key: D
**kern	**fba	**dynam	**kern	**dynam	**kern	**dynam	**kern	**dynam	**kern	**text	**kern	**text	**kern	**text	**kern	**text	**kern	**kern	**dynam	**kern	**dynam	**kern	**dynam	**kern	**dynam
*	*	*	*group4	*	*group4	*	*group4	*	*group3	*	*group3	*	*group3	*	*group3	*	*	*group2	*	*group2	*	*group1	*	*group1	*
*part13	*part13	*part13	*part12	*part12	*part11	*part11	*part10	*part10	*part9	*part9	*part8	*part8	*part7	*part7	*part6	*part6	*part5	*part4	*part4	*part3	*part3	*part2	*part2	*part1	*part1
*staff13	*	*	*staff12	*	*staff11	*	*staff10	*	*staff9	*staff9	*staff8	*staff8	*staff7	*staff7	*staff6	*staff6	*staff5	*staff4	*	*staff3	*	*staff2	*	*staff1	*
*I"Organo	*	*	*I"Viola Obligatto	*	*I"Violino Secondo	*	*I"Violino Primo	*	*I"Baſso	*	*I"Tenore	*	*I"Alto	*	*I"Canto	*	*I"Timpano in D. A.	*I"Cornu Secondo ex D:	*	*I"Cornu Primo ex D:	*	*I"Oboe Secondo	*	*I"Oboe Primo	*
*	*	*	*mI"Viola Obligato	*	*mI"Violino II	*	*mI"Violino I	*	*mI"Basso	*	*	*	*	*	*mI"Soprano	*	*	*mI"Corno II in D	*	*mI"Corno I in D	*	*mI"Oboe II	*	*mI"Oboe I	*
*I'org	*	*	*I'vla	*	*I'vl 2	*	*I'vl 1	*	*I'B	*	*I'T	*	*I'A	*	*I'S	*	*I'timp	*I'cor 2 in D	*	*I'cor 1 in D	*	*I'ob 2	*	*I'ob 1	*
*Iorgan	*	*	*Iviola	*	*Ivioln	*	*Ivioln	*	*Ibass	*	*Itenor	*	*Ialto	*	*Isoprn	*	*Itimpa	*Icor	*	*Icor	*	*Ioboe	*	*Ioboe	*
*ICklav	*	*	*ICstr	*	*ICstr	*	*ICstr	*	*ICvox	*	*ICvox	*	*ICvox	*	*ICvox	*	*ICidio	*ICbras	*	*ICbras	*	*ICww	*	*ICww	*
*IGcont	*	*	*	*	*	*	*	*	*IGcoro	*	*IGcoro	*	*IGcoro	*	*IGcoro	*	*	*	*	*	*	*	*	*	*
*clefF4	*	*	*clefC3	*	*clefG2	*	*clefG2	*	*clefF4	*	*clefC4	*	*clefC3	*	*clefC1	*	*clefF4	*clefG2	*	*clefG2	*	*clefG2	*	*clefG2	*
*	*	*	*	*	*	*	*	*	*	*	*mclefGv2	*	*mclefG2	*	*mclefG2	*	*	*	*	*	*	*	*	*	*
*	*	*	*	*	*	*	*	*	*	*	*	*	*	*	*	*	*	*ITrd6c10	*	*ITrd6c10	*	*	*	*	*
*k[f#c#]	*	*	*k[f#c#]	*	*k[f#c#]	*	*k[f#c#]	*	*k[f#c#]	*	*k[c#f#]	*	*k[f#c#]	*	*k[f#c#]	*	*	*k[f#c#]	*	*k[f#c#]	*	*k[f#c#]	*	*k[f#c#]	*
*	*	*	*	*	*	*	*	*	*	*	*mk[f#c#]	*	*	*	*	*	*	*	*	*	*	*	*	*	*
*D:	*	*	*D:	*	*D:	*	*D:	*	*D:	*	*D:	*	*D:	*	*D:	*	*	*D:	*	*D:	*	*D:	*	*D:	*
*M3/4	*	*	*M3/4	*	*M3/4	*	*M3/4	*	*M3/4	*	*M3/4	*	*M3/4	*	*M3/4	*	*M3/4	*M3/4	*	*M3/4	*	*M3/4	*	*M3/4	*
=1	=1	=1	=1	=1	=1	=1	=1	=1	=1	=1	=1	=1	=1	=1	=1	=1	=1	=1	=1	=1	=1	=1	=1	=1	=1
*	*	*	*	*	*	*	*2\right	*	*	*	*	*	*	*	*	*	*	*	*	*	*	*	*	*	*
!LO:MO:mod=!LO&colon;TX&colon;a&colon;i&colon;t=pizzicato	!	!	!	!LO:MO:null:mod=!LO&colon;DY&colon;ed=brack	!	!	!LO:TX:a:t=dol&colon;:mod=	!LO:MO:null:mod=!LO&colon;DY&colon;ed=brack	!	!	!	!	!	!	!	!	!	!	!	!	!	!	!	!	!
!LO:TX:a:i:t=pizicatto	!	!	!LO:TX:a:i:t=Solo:mod=	!null	!	!	!LO:TX:a:i:t=Solo:mod=	!null	!	!	!	!	!	!	!	!	!LO:TX:a:t=11.:mod=	!	!	!	!	!	!	!	!
!LO:TX:a:Bi:t=adagio:mod=	!	!	!LO:TX:a:Bi:t=adagio&colon;:mod=	!LO:MO:null:mod=p	!LO:TX:a:Bi:t=adagio:mod=	!LO:DY:a:t=pio&colon;:mod=	!LO:TX:a:Bi:t=adagio&colon;:mod=	!LO:MO:null:mod=p	!LO:TX:a:Bi:t=adagio&colon;:mod=	!	!LO:TX:a:Bi:t=adag&colon;:mod=	!	!LO:TX:a:Bi:t=adagio&colon;:mod=	!	!LO:TX:a:Bi:t=adagio:mod=	!	!LO:TX:a:Bi:t=Adagio:mod=	!LO:TX:a:Bi:t=adagio:mod=	!	!LO:TX:a:Bi:t=adag&colon;:mod=	!	!LO:TX:a:Bi:t=adagio&colon;:mod=	!	!LO:TX:a:Bi:t=adag&colon;:mod=	!
4D\	.	.	(8d\L	.	(8f#/L	p	2.dd\	.	0.r	.	0.r	.	0.r	.	0.r	.	0.r	0.r	.	0.r	.	0.r	.	0.r	.
.	.	.	8f#\)	.	8a/)	.	.	.	.	.	.	.	.	.	.	.	.	.	.	.	.	.	.	.	.
4r	.	.	(8d\	.	(8f#/	.	.	.	.	.	.	.	.	.	.	.	.	.	.	.	.	.	.	.	.
.	.	.	8f#\)	.	8a/)	.	.	.	.	.	.	.	.	.	.	.	.	.	.	.	.	.	.	.	.
4r	.	.	(8d\	.	(8f#/	.	.	.	.	.	.	.	.	.	.	.	.	.	.	.	.	.	.	.	.
.	.	.	8f#\J)	.	8a/J)	.	.	.	.	.	.	.	.	.	.	.	.	.	.	.	.	.	.	.	.
=2	=2	=2	=2	=2	=2	=2	=2	=2	=2	=2	=2	=2	=2	=2	=2	=2	=2	=2	=2	=2	=2	=2	=2	=2	=2
.	.	.	.	.	.	.	8qee/	.	.	.	.	.	.	.	.	.	.	.	.	.	.	.	.	.	.
*	*	*	*2\right	*	*	*	*	*	*	*	*	*	*	*	*	*	*	*	*	*	*	*	*	*	*
*	*	*	*tremolo	*	*tremolo	*	*	*	*	*	*	*	*	*	*	*	*	*	*	*	*	*	*	*	*
!	!	!	!	!	!	!	!LO:TX:a:i:t=Solo:mod=	!	!	!	!	!	!	!	!	!	!	!	!	!	!	!	!	!	!
4D\	.	.	8d\L	.	8f#/L	.	2.ff#\	.	.	.	.	.	.	.	.	.	.	.	.	.	.	.	.	.	.
.	.	.	8f#\	.	8a/	.	.	.	.	.	.	.	.	.	.	.	.	.	.	.	.	.	.	.	.
4r	.	.	8d\	.	8f#/	.	.	.	.	.	.	.	.	.	.	.	.	.	.	.	.	.	.	.	.
.	.	.	8f#\	.	8a/	.	.	.	.	.	.	.	.	.	.	.	.	.	.	.	.	.	.	.	.
4r	.	.	8d\	.	8f#/	.	.	.	.	.	.	.	.	.	.	.	.	.	.	.	.	.	.	.	.
.	.	.	8f#\J	.	8a/J	.	.	.	.	.	.	.	.	.	.	.	.	.	.	.	.	.	.	.	.
=3	=3	=3	=3	=3	=3	=3	=3	=3	=3	=3	=3	=3	=3	=3	=3	=3	=3	=3	=3	=3	=3	=3	=3	=3	=3
.	.	.	.	.	.	.	8qgg#X/	.	.	.	.	.	.	.	.	.	.	.	.	.	.	.	.	.	.
4AA/	.	.	8c#\L	.	8e/L	.	4.aa\	.	.	.	.	.	.	.	.	.	.	.	.	.	.	.	.	.	.
.	.	.	8e\	.	8g/	.	.	.	.	.	.	.	.	.	.	.	.	.	.	.	.	.	.	.	.
4r	.	.	8c#\	.	8e/	.	.	.	.	.	.	.	.	.	.	.	.	.	.	.	.	.	.	.	.
.	.	.	8e\	.	8g/	.	8bb\	.	.	.	.	.	.	.	.	.	.	.	.	.	.	.	.	.	.
4r	.	.	8c#\	.	8e/	.	(16aa\LL	.	.	.	.	.	.	.	.	.	.	.	.	.	.	.	.	.	.
!	!	!	!	!	!	!	!LO:SIC:v:s=16ggn\	!	!	!	!	!	!	!	!	!	!	!	!	!	!	!	!	!	!
.	.	.	.	.	.	.	16gg#\	.	.	.	.	.	.	.	.	.	.	.	.	.	.	.	.	.	.
.	.	.	8e\J	.	8g/J	.	16ff#\	.	.	.	.	.	.	.	.	.	.	.	.	.	.	.	.	.	.
.	.	.	.	.	.	.	16ee\JJ)	.	.	.	.	.	.	.	.	.	.	.	.	.	.	.	.	.	.
=4	=4	=4	=4	=4	=4	=4	=4	=4	=4	=4	=4	=4	=4	=4	=4	=4	=4	=4	=4	=4	=4	=4	=4	=4	=4
4D\	.	.	8d\L	.	8f#/L	.	(16ee\LL	.	.	.	.	.	.	.	.	.	.	.	.	.	.	.	.	.	.
.	.	.	.	.	.	.	16dd\	.	.	.	.	.	.	.	.	.	.	.	.	.	.	.	.	.	.
.	.	.	8f#\	.	8a/	.	16cc#\	.	.	.	.	.	.	.	.	.	.	.	.	.	.	.	.	.	.
.	.	.	.	.	.	.	16dd\JJ)	.	.	.	.	.	.	.	.	.	.	.	.	.	.	.	.	.	.
4r	.	.	8d\	.	8f#/	.	4.dd\	.	.	.	.	.	.	.	.	.	.	.	.	.	.	.	.	.	.
.	.	.	8f#\	.	8a/	.	.	.	.	.	.	.	.	.	.	.	.	.	.	.	.	.	.	.	.
4r	.	.	8d\	.	8f#/	.	.	.	.	.	.	.	.	.	.	.	.	.	.	.	.	.	.	.	.
.	.	.	8f#\J	.	8a/J	.	8dd#X\	.	.	.	.	.	.	.	.	.	.	.	.	.	.	.	.	.	.
=5	=5	=5	=5	=5	=5	=5	=5	=5	=5	=5	=5	=5	=5	=5	=5	=5	=5	=5	=5	=5	=5	=5	=5	=5	=5
!	!	!	!	!	!	!	!LO:SIC:v:s=(16dd#\KL	!	!	!	!	!	!	!	!	!	!	!	!	!	!	!	!	!	!
4G\	.	.	8e\L	.	8g/L	.	(16dd\KL	.	0.r	.	0.r	.	0.r	.	0.r	.	0.r	0.r	.	0.r	.	0.r	.	0.r	.
.	.	.	.	.	.	.	8.ee\J)	.	.	.	.	.	.	.	.	.	.	.	.	.	.	.	.	.	.
.	.	.	8g\	.	8b/	.	.	.	.	.	.	.	.	.	.	.	.	.	.	.	.	.	.	.	.
4r	.	.	8e\	.	8g/	.	(4.bb\	.	.	.	.	.	.	.	.	.	.	.	.	.	.	.	.	.	.
.	.	.	8g\	.	8b/	.	.	.	.	.	.	.	.	.	.	.	.	.	.	.	.	.	.	.	.
4r	.	.	8e\	.	8g/	.	.	.	.	.	.	.	.	.	.	.	.	.	.	.	.	.	.	.	.
.	.	.	8g\J	.	8b/J	.	8gg\)	.	.	.	.	.	.	.	.	.	.	.	.	.	.	.	.	.	.
=6	=6	=6	=6	=6	=6	=6	=6	=6	=6	=6	=6	=6	=6	=6	=6	=6	=6	=6	=6	=6	=6	=6	=6	=6	=6
4F#\	.	.	8d\L	.	8f#/L	.	(8gg\L	.	.	.	.	.	.	.	.	.	.	.	.	.	.	.	.	.	.
.	.	.	8f#\	.	8a/	.	8ff#\J)	.	.	.	.	.	.	.	.	.	.	.	.	.	.	.	.	.	.
4r	.	.	8d\	.	8f#/	.	(4.aa\	.	.	.	.	.	.	.	.	.	.	.	.	.	.	.	.	.	.
.	.	.	8f#\	.	8a/	.	.	.	.	.	.	.	.	.	.	.	.	.	.	.	.	.	.	.	.
4r	.	.	8d\	.	8f#/	.	.	.	.	.	.	.	.	.	.	.	.	.	.	.	.	.	.	.	.
.	.	.	8f#\J	.	8a/J	.	16ff#\LL	.	.	.	.	.	.	.	.	.	.	.	.	.	.	.	.	.	.
.	.	.	.	.	.	.	16dd\JJ)	.	.	.	.	.	.	.	.	.	.	.	.	.	.	.	.	.	.
*	*	*	*Xtremolo	*	*Xtremolo	*	*	*	*	*	*	*	*	*	*	*	*	*	*	*	*	*	*	*	*
!	!	!	!LO:LB:g=original	!	!LO:LB:g=original	!	!LO:LB:g=original	!	!	!	!	!	!	!	!	!	!	!	!	!	!	!	!	!	!
=7	=7	=7	=7	=7	=7	=7	=7	=7	=7	=7	=7	=7	=7	=7	=7	=7	=7	=7	=7	=7	=7	=7	=7	=7	=7
!	!	!	!LO:SIC:s=(8eL	!	!	!	!	!	!	!	!	!	!	!	!	!	!	!	!	!	!	!	!	!	!
4E\	.	.	8e\L	.	(8g/L	.	(16dd\LL	.	.	.	.	.	.	.	.	.	.	.	.	.	.	.	.	.	.
.	.	.	.	.	.	.	16cc#\	.	.	.	.	.	.	.	.	.	.	.	.	.	.	.	.	.	.
!	!	!	!LO:SIC:s=8g)	!	!	!	!	!	!	!	!	!	!	!	!	!	!	!	!	!	!	!	!	!	!
.	.	.	8g\	.	8a/)	.	16cc#\	.	.	.	.	.	.	.	.	.	.	.	.	.	.	.	.	.	.
.	.	.	.	.	.	.	16ee\JJ)	.	.	.	.	.	.	.	.	.	.	.	.	.	.	.	.	.	.
!	!	!	!LO:SIC:s=(8c#	!	!	!	!	!	!	!	!	!	!	!	!	!	!	!	!	!	!	!	!	!	!
4C#/	.	.	8c#\	.	(8e/	.	(8.aa\L	.	.	.	.	.	.	.	.	.	.	.	.	.	.	.	.	.	.
!	!	!	!LO:SIC:s=8e)	!	!	!	!	!	!	!	!	!	!	!	!	!	!	!	!	!	!	!	!	!	!
.	.	.	8e\	.	8g/)	.	.	.	.	.	.	.	.	.	.	.	.	.	.	.	.	.	.	.	.
.	.	.	.	.	.	.	16bb\Jk)	.	.	.	.	.	.	.	.	.	.	.	.	.	.	.	.	.	.
!	!	!	!LO:SIC:s=(8c#	!	!	!	!	!	!	!	!	!	!	!	!	!	!	!	!	!	!	!	!	!	!
4AA/	.	.	8c#\	.	(8e/	.	(16aa\LL	.	.	.	.	.	.	.	.	.	.	.	.	.	.	.	.	.	.
.	.	.	.	.	.	.	16gg\	.	.	.	.	.	.	.	.	.	.	.	.	.	.	.	.	.	.
!	!	!	!LO:SIC:s=8eJ)	!	!	!	!	!	!	!	!	!	!	!	!	!	!	!	!	!	!	!	!	!	!
.	.	.	8e\J	.	8g/J)	.	16ff#\	.	.	.	.	.	.	.	.	.	.	.	.	.	.	.	.	.	.
.	.	.	.	.	.	.	16gg\JJ)	.	.	.	.	.	.	.	.	.	.	.	.	.	.	.	.	.	.
!LO:LB:g=original	!	!	!	!	!	!	!	!	!	!	!	!	!	!	!	!	!	!	!	!	!	!	!	!	!
=8	=8	=8	=8	=8	=8	=8	=8	=8	=8	=8	=8	=8	=8	=8	=8	=8	=8	=8	=8	=8	=8	=8	=8	=8	=8
4D\	.	.	8c#\L	.	(8e/L	.	(4.gg\	.	.	.	.	.	.	.	.	.	.	.	.	.	.	.	.	.	.
.	.	.	8e\	.	8g/)	.	.	.	.	.	.	.	.	.	.	.	.	.	.	.	.	.	.	.	.
4D\	.	.	8g\	.	(8e/	.	.	.	.	.	.	.	.	.	.	.	.	.	.	.	.	.	.	.	.
.	.	.	8f#\	.	8a/)	.	8ff#\)	.	.	.	.	.	.	.	.	.	.	.	.	.	.	.	.	.	.
4r	.	.	8d\	.	(8f#/	.	8r	.	.	.	.	.	.	.	.	.	.	.	.	.	.	.	.	.	.
.	.	.	8f#\J	.	8a/J)	.	8dd\	.	.	.	.	.	.	.	.	.	.	.	.	.	.	.	.	.	.
=9	=9	=9	=9	=9	=9	=9	=9	=9	=9	=9	=9	=9	=9	=9	=9	=9	=9	=9	=9	=9	=9	=9	=9	=9	=9
4D\	.	.	8d\L	.	8f#/L	.	2aa\	.	1.r	.	1.r	.	1.r	.	1.r	.	1.r	1.r	.	1.r	.	1.r	.	1.r	.
.	.	.	8f#\	.	8a/	.	.	.	.	.	.	.	.	.	.	.	.	.	.	.	.	.	.	.	.
4r	.	.	8e\	.	8g/	.	.	.	.	.	.	.	.	.	.	.	.	.	.	.	.	.	.	.	.
.	.	.	8d\	.	8f#/	.	.	.	.	.	.	.	.	.	.	.	.	.	.	.	.	.	.	.	.
4r	.	.	8c#\	.	8e/	.	(16bb\LL	.	.	.	.	.	.	.	.	.	.	.	.	.	.	.	.	.	.
.	.	.	.	.	.	.	16aa\	.	.	.	.	.	.	.	.	.	.	.	.	.	.	.	.	.	.
.	.	.	8d\J	.	8f#/J	.	16gg\	.	.	.	.	.	.	.	.	.	.	.	.	.	.	.	.	.	.
.	.	.	.	.	.	.	16ff#\JJ)	.	.	.	.	.	.	.	.	.	.	.	.	.	.	.	.	.	.
=10	=10	=10	=10	=10	=10	=10	=10	=10	=10	=10	=10	=10	=10	=10	=10	=10	=10	=10	=10	=10	=10	=10	=10	=10	=10
4AA/	.	.	8e\L	.	8g/L	.	(16ff#\LL	.	.	.	.	.	.	.	.	.	.	.	.	.	.	.	.	.	.
.	.	.	.	.	.	.	16ee\	.	.	.	.	.	.	.	.	.	.	.	.	.	.	.	.	.	.
.	.	.	8c#\	.	8e/	.	16dd\	.	.	.	.	.	.	.	.	.	.	.	.	.	.	.	.	.	.
.	.	.	.	.	.	.	16ee\JJ)	.	.	.	.	.	.	.	.	.	.	.	.	.	.	.	.	.	.
4r	.	.	8e\	.	8g/	.	4.ee\	.	.	.	.	.	.	.	.	.	.	.	.	.	.	.	.	.	.
!	!	!	!LO:SIC:s=8c#	!	!	!	!	!	!	!	!	!	!	!	!	!	!	!	!	!	!	!	!	!	!
.	.	.	8c#\J	.	8e/	.	.	.	.	.	.	.	.	.	.	.	.	.	.	.	.	.	.	.	.
!	!	!	!LO:SIC:s=8A	!	!	!	!	!	!	!	!	!	!	!	!	!	!	!	!	!	!	!	!	!	!
4r	.	.	8A/L	.	8c#/	.	.	.	.	.	.	.	.	.	.	.	.	.	.	.	.	.	.	.	.
.	.	.	8c#/J	.	8e/J	.	16ff#\LL	.	.	.	.	.	.	.	.	.	.	.	.	.	.	.	.	.	.
.	.	.	.	.	.	.	16gg\JJ	.	.	.	.	.	.	.	.	.	.	.	.	.	.	.	.	.	.
=11	=11	=11	=11	=11	=11	=11	=11	=11	=11	=11	=11	=11	=11	=11	=11	=11	=11	=11	=11	=11	=11	=11	=11	=11	=11
.	.	.	.	.	.	.	8qgg/	.	.	.	.	.	.	.	.	.	.	.	.	.	.	.	.	.	.
4D\	.	.	8d\L	.	8f#/L	.	8ff#\L	.	2.r	.	2.r	.	2.r	.	2.r	.	2.r	2.r	.	2.r	.	2.r	.	2.r	.
.	.	.	8f#\	.	8a/	.	16ee\L	.	.	.	.	.	.	.	.	.	.	.	.	.	.	.	.	.	.
.	.	.	.	.	.	.	16dd\JJ	.	.	.	.	.	.	.	.	.	.	.	.	.	.	.	.	.	.
4G\	.	.	8e\	.	8g/	.	2eeT\	.	.	.	.	.	.	.	.	.	.	.	.	.	.	.	.	.	.
.	.	.	8g\	.	8b/	.	.	.	.	.	.	.	.	.	.	.	.	.	.	.	.	.	.	.	.
4A\	.	.	8c#\	.	8e/	.	.	.	.	.	.	.	.	.	.	.	.	.	.	.	.	.	.	.	.
!	!	!	!	!	!	!	!	!	!	!	!	!	!	!	!	!	!	!	!	!	!	!	!LO:DY:a	!	!LO:DY:a
!	!	!	!	!	!	!	!	!	!	!	!	!	!	!	!	!	!	!	!	!	!	!	!LO:MO:mod=.	!	!LO:MO:mod=.
.	.	.	8e\J	.	8g/J	.	.	.	.	.	.	.	.	.	.	.	.	.	.	.	.	.	f	.	f
!	!	!	!	!	!	!	!LO:PB:g=original	!	!	!	!	!	!	!	!	!	!	!	!	!	!	!	!	!	!
=12	=12	=12	=12	=12	=12	=12	=12	=12	=12	=12	=12	=12	=12	=12	=12	=12	=12	=12	=12	=12	=12	=12	=12	=12	=12
!	!	!	!	!	!	!	!	!	!	!	!	!	!	!	!	!	!	!	!	!	!LO:MO:null:mod=!LO&colon;DY&colon;ed=brack	!	!	!	!
!	!	!	!	!	!	!	!	!	!	!	!	!	!	!	!	!	!	!	!	!	!null	!	!	!	!
!LO:TX:a:i:t=Organo tutti	!	!	!	!LO:DY:a	!	!LO:DY:a:t=for&colon;	!LO:SIC:s=(16ddLL	!LO:DY:a	!	!	!	!	!	!	!	!	!	!	!LO:DY:a:t=for:rj	!	!LO:MO:null:mod=f	!	!LO:MO:null:mod=f	!	!LO:MO:null:mod=f
4D\	.	.	4A/	f	(16f#/LL	f	16dd\LL	f	4D\	San-	4A\	San-	4f#\	San-	4dd\	San-	4D\	4F#/	f	4d\	.	4dd\	.	4ff#\	.
.	.	.	.	.	16e/	.	16cc#\	.	.	.	.	.	.	.	.	.	.	.	.	.	.	.	.	.	.
.	.	.	.	.	16f#/	.	16dd\	.	.	.	.	.	.	.	.	.	.	.	.	.	.	.	.	.	.
!	!	!	!	!	!	!	!LO:SIC:s=16cc#JJ)	!	!	!	!	!	!	!	!	!	!	!	!	!	!	!	!	!	!
.	.	.	.	.	16e/JJ)	.	16cc#\JJ	.	.	.	.	.	.	.	.	.	.	.	.	.	.	.	.	.	.
!	!	!	!	!	!LO:LB:g=original	!	!LO:TX:t=P:problem=mixed beam	!	!	!	!	!	!	!	!	!	!	!	!	!	!	!	!	!	!
4D\	.	.	4A/	.	16f#/LL	.	16dd\LL	.	4D\	-ctus	4A\	-ctus	4f#\	-ctus	4dd\	-ctus	4D\	4F#/	.	4d\	.	4dd\	.	4ff#\	.
.	.	.	.	.	16d/	.	16f#/	.	.	.	.	.	.	.	.	.	.	.	.	.	.	.	.	.	.
.	.	.	.	.	16e/	.	16g/	.	.	.	.	.	.	.	.	.	.	.	.	.	.	.	.	.	.
.	.	.	.	.	16f#/JJ	.	16a/JJ	.	.	.	.	.	.	.	.	.	.	.	.	.	.	.	.	.	.
4r	.	.	4r	.	16g/LL	.	16b\LL	.	4r	.	4r	.	4r	.	4r	.	4r	4r	.	4r	.	4r	.	4r	.
.	.	.	.	.	16a/	.	16cc#\	.	.	.	.	.	.	.	.	.	.	.	.	.	.	.	.	.	.
.	.	.	.	.	16b/	.	16dd\	.	.	.	.	.	.	.	.	.	.	.	.	.	.	.	.	.	.
.	.	.	.	.	16cc#/JJ	.	16ee\JJ	.	.	.	.	.	.	.	.	.	.	.	.	.	.	.	.	.	.
!	!	!	!LO:LB:g=original	!	!	!	!	!	!	!	!	!	!	!	!	!	!	!	!	!	!	!	!	!	!
=13	=13	=13	=13	=13	=13	=13	=13	=13	=13	=13	=13	=13	=13	=13	=13	=13	=13	=13	=13	=13	=13	=13	=13	=13	=13
*	*	*	*	*	*	*	*	*	*	*ij	*	*ij	*	*ij	*	*ij	*	*	*	*	*	*	*	*	*
!	!	!	!	!	!	!	!LO:SIC:s=(16ff#LL	!	!	!	!	!	!	!	!	!	!	!	!	!	!	!	!	!	!
4D\	.	.	4A/	.	(16dd\LL	.	16ff#\LL	.	4D\	San-	4A\	San-	4f#\	San-	4dd\	San-	4D\	4F#/	.	4d\	.	4dd\	.	4ff#\	.
.	.	.	.	.	16cc#\	.	16ee\	.	.	.	.	.	.	.	.	.	.	.	.	.	.	.	.	.	.
.	.	.	.	.	16dd\	.	16ff#\	.	.	.	.	.	.	.	.	.	.	.	.	.	.	.	.	.	.
!	!	!	!	!	!	!	!LO:SIC:s=16eeJJ)	!	!	!	!	!	!	!	!	!	!	!	!	!	!	!	!	!	!
.	.	.	.	.	16cc#\JJ)	.	16ee\JJ	.	.	.	.	.	.	.	.	.	.	.	.	.	.	.	.	.	.
!	!	!	!	!	!LO:TX:t=P:problem=mixed beam	!	!	!	!	!	!	!	!	!	!	!	!	!	!	!	!	!	!	!	!
4D\	.	.	4A/	.	16dd\LL	.	16ff#\LL	.	4D\	-ctus	4A\	-ctus	4f#\	-ctus	4dd\	-ctus	4D\	4F#/	.	4d\	.	4dd\	.	4ff#\	.
.	.	.	.	.	16f#/	.	16dd\	.	.	.	.	.	.	.	.	.	.	.	.	.	.	.	.	.	.
.	.	.	.	.	16g/	.	16ee\	.	.	.	.	.	.	.	.	.	.	.	.	.	.	.	.	.	.
.	.	.	.	.	16a/JJ	.	16ff#\JJ	.	.	.	.	.	.	.	.	.	.	.	.	.	.	.	.	.	.
4r	.	.	4r	.	16b\LL	.	16gg\LL	.	4r	.	4r	.	4r	.	4r	.	4r	4r	.	4r	.	4r	.	4r	.
.	.	.	.	.	16cc#\	.	16aa\	.	.	.	.	.	.	.	.	.	.	.	.	.	.	.	.	.	.
.	.	.	.	.	16dd\	.	16bb\	.	.	.	.	.	.	.	.	.	.	.	.	.	.	.	.	.	.
.	.	.	.	.	16ee\JJ	.	16ccc#\JJ	.	.	.	.	.	.	.	.	.	.	.	.	.	.	.	.	.	.
=14	=14	=14	=14	=14	=14	=14	=14	=14	=14	=14	=14	=14	=14	=14	=14	=14	=14	=14	=14	=14	=14	=14	=14	=14	=14
!	!	!	!	!	!	!	!LO:SIC:s=(16dddLL	!	!	!	!	!	!	!	!	!	!	!	!	!	!	!	!	!	!
4d\	.	.	4a\	.	(16ff#\LL	.	16ddd\LL	.	4D\	San-	4A\	San-	4f#\	San-	4dd\	San-	4D\	4F#/	.	4d\	.	4dd\	.	4ee\	.
.	.	.	.	.	16ee\	.	16ccc#\	.	.	.	.	.	.	.	.	.	.	.	.	.	.	.	.	.	.
.	.	.	.	.	16ff#\	.	16ddd\	.	.	.	.	.	.	.	.	.	.	.	.	.	.	.	.	.	.
!	!	!	!	!	!	!	!LO:SIC:s=16ccc#JJ)	!	!	!	!	!	!	!	!	!	!	!	!	!	!	!	!	!	!
.	.	.	.	.	16ee\JJ)	.	16ccc#\JJ	.	.	.	.	.	.	.	.	.	.	.	.	.	.	.	.	.	.
4d\	.	.	4a\	.	8ff#\L	.	8ddd\L	.	4D\	-ctus	4A\	-ctus	4f#\	-ctus	4dd\	-ctus	4D\	4F#/	.	4d\	.	4dd\	.	4ee\	.
*	*	*	*	*	*	*	*	*	*	*Xij	*	*Xij	*	*Xij	*	*Xij	*	*	*	*	*	*	*	*	*
.	.	.	.	.	16dd\L	.	16ff#\L	.	.	.	.	.	.	.	.	.	.	.	.	.	.	.	.	.	.
.	.	.	.	.	16ee\JJ	.	16gg\JJ	.	.	.	.	.	.	.	.	.	.	.	.	.	.	.	.	.	.
4r	.	.	4r	.	16ff#\LL	.	16aa\LL	.	4r	.	4r	.	4r	.	4r	.	4r	4r	.	4r	.	4r	.	4r	.
.	.	.	.	.	16gg\	.	16bb\	.	.	.	.	.	.	.	.	.	.	.	.	.	.	.	.	.	.
.	.	.	.	.	16ee\	.	16ccc#\	.	.	.	.	.	.	.	.	.	.	.	.	.	.	.	.	.	.
.	.	.	.	.	16ff#\JJ	.	16ddd\JJ	.	.	.	.	.	.	.	.	.	.	.	.	.	.	.	.	.	.
!	!	!	!	!	!	!	!LO:LB:g=original	!	!LO:LB:g=original	!	!LO:LB:g=original	!	!LO:LB:g=original	!	!LO:LB:g=original	!	!	!	!	!	!	!	!	!	!
=15	=15	=15	=15	=15	=15	=15	=15	=15	=15	=15	=15	=15	=15	=15	=15	=15	=15	=15	=15	=15	=15	=15	=15	=15	=15
*	*	*	*	*	*	*	*	*	*	*	*	*	*	*	*	*	*tremolo	*	*	*2\right	*	*2\right	*	*2\right	*
!	!	!	!	!	!	!	!	!	!	!	!	!	!	!	!	!	!LO:TX:t=P:global:problem=tremolo zapisane falującą linią	!	!	!	!	!	!	!	!
4c#\	6_ 5_	.	4a\	.	(8.aa\L	.	(8.aa\L	.	4c#\	Do-	4e\	Do-	4a\	Do-	4ee\	Do-	16AAT</LL	2.A/	.	2.e\	.	2.ee\	.	2.gg\	.
.	.	.	.	.	.	.	.	.	.	.	.	.	.	.	.	.	16AATT</	.	.	.	.	.	.	.	.
.	.	.	.	.	.	.	.	.	.	.	.	.	.	.	.	.	16AATT</	.	.	.	.	.	.	.	.
.	.	.	.	.	16gg\Jk)	.	16gg\Jk)	.	.	.	.	.	.	.	.	.	16AATT</	.	.	.	.	.	.	.	.
4c#\	.	.	4a\	.	8ee|\L	.	8ee|\L	.	4c#\	-mi-	4e\	-mi-	4a\	-mi-	4ee\	-mi-	16AATT</	.	.	.	.	.	.	.	.
.	.	.	.	.	.	.	.	.	.	.	.	.	.	.	.	.	16AATT</	.	.	.	.	.	.	.	.
.	.	.	.	.	8ee|\	.	8ee|\	.	.	.	.	.	.	.	.	.	16AATT</	.	.	.	.	.	.	.	.
.	.	.	.	.	.	.	.	.	.	.	.	.	.	.	.	.	16AATT</	.	.	.	.	.	.	.	.
4c#\	.	.	4a\	.	8ee|\	.	8ee|\	.	4c#\	-nus	4e\	-nus	4a\	-nus	4ee\	-nus	16AATT</	.	.	.	.	.	.	.	.
.	.	.	.	.	.	.	.	.	.	.	.	.	.	.	.	.	16AATT</	.	.	.	.	.	.	.	.
.	.	.	.	.	8ee|\J	.	8ee|\J	.	.	.	.	.	.	.	.	.	16AATT</	.	.	.	.	.	.	.	.
.	.	.	.	.	.	.	.	.	.	.	.	.	.	.	.	.	16AATT</JJ	.	.	.	.	.	.	.	.
!LO:LB:g=original	!	!	!	!	!LO:LB:g=original	!	!	!	!	!	!	!	!	!	!	!	!	!	!	!	!	!	!	!	!
=16	=16	=16	=16	=16	=16	=16	=16	=16	=16	=16	=16	=16	=16	=16	=16	=16	=16	=16	=16	=16	=16	=16	=16	=16	=16
*	*	*	*	*	*	*	*	*	*2\right	*	*2\right	*	*2\right	*	*2\right	*	*2\right	*2\right	*	*	*	*	*	*	*
4d\	x	.	4a\	.	(8.aa\L	.	(8.aa\L	.	2d\	De-	2d\	De-	2a\	De-	2ff#\	De-	16DTT\LL	2d\	.	2f#\	.	4dd\	.	2ff#\	.
.	.	.	.	.	.	.	.	.	.	.	.	.	.	.	.	.	16DTT\	.	.	.	.	.	.	.	.
.	.	.	.	.	.	.	.	.	.	.	.	.	.	.	.	.	16DTT\	.	.	.	.	.	.	.	.
.	.	.	.	.	16gg\Jk)	.	16gg\Jk)	.	.	.	.	.	.	.	.	.	16DTT\	.	.	.	.	.	.	.	.
4d\	.	.	4a\	.	8ff#|\L	.	8ff#|\L	.	.	.	.	.	.	.	.	.	16DTT\	.	.	.	.	4a/	.	.	.
.	.	.	.	.	.	.	.	.	.	.	.	.	.	.	.	.	16DTT\	.	.	.	.	.	.	.	.
.	.	.	.	.	8ff#|\J	.	8ff#|\J	.	.	.	.	.	.	.	.	.	16DTT\	.	.	.	.	.	.	.	.
.	.	.	.	.	.	.	.	.	.	.	.	.	.	.	.	.	16DTT\JJ	.	.	.	.	.	.	.	.
!	!	!	!	!	!	!	!LO:SIC:s=(16ff#LL	!	!	!	!	!	!	!	!	!	!	!	!	!	!	!	!	!	!
4c#\	6	.	4e\	.	(16ff#\LL	.	16ff#\LL	.	4c#\	-us	4e\	-us	4a\	-us	4ee\	-us	16AAT</LL	4A/	.	4e\	.	4a/	.	4ee\	.
.	.	.	.	.	16gg\	.	16gg\	.	.	.	.	.	.	.	.	.	16AATT</	.	.	.	.	.	.	.	.
.	.	.	.	.	16gg#X\	.	16gg#X\	.	.	.	.	.	.	.	.	.	16AATT</	.	.	.	.	.	.	.	.
!	!	!	!	!	!	!	!LO:SIC:s=16aaJJ)	!	!	!	!	!	!	!	!	!	!	!	!	!	!	!	!	!	!
.	.	.	.	.	16aa\JJ)	.	16aa\JJ	.	.	.	.	.	.	.	.	.	16AATT</JJ	.	.	.	.	.	.	.	.
!	!	!	!	!	!	!	!	!	!	!	!	!	!	!	!	!	!	!LO:LB:g=original	!	!LO:LB:g=original	!	!LO:LB:g=original	!	!LO:LB:g=original	!
=17	=17	=17	=17	=17	=17	=17	=17	=17	=17	=17	=17	=17	=17	=17	=17	=17	=17	=17	=17	=17	=17	=17	=17	=17	=17
*	*	*	*	*	*	*	*	*	*	*ij	*	*ij	*	*ij	*	*ij	*	*	*	*	*	*	*	*	*
4B\	3_	.	4f#\	.	16ggn\LL	.	16ggn\LL	.	(4B\	De-	2d\	De-	2f#\	De-	2dd\	De-	16DTT\LL	4d\	.	4f#\	.	4dd\	.	4ff#\	.
.	.	.	.	.	16ff#\	.	16ff#\	.	.	.	.	.	.	.	.	.	16DTT\	.	.	.	.	.	.	.	.
.	.	.	.	.	16ee\	.	16ee\	.	.	.	.	.	.	.	.	.	16DTT\	.	.	.	.	.	.	.	.
.	.	.	.	.	16dd\JJ	.	16dd\JJ	.	.	.	.	.	.	.	.	.	16DTT\JJ	.	.	.	.	.	.	.	.
4A\	.	.	4f#\	.	8dd\L	.	8dd\L	.	4A\)	.	.	.	.	.	.	.	16DTT\LL	4d\	.	4f#\	.	4dd\	.	4ff#\	.
.	.	.	.	.	.	.	.	.	.	.	.	.	.	.	.	.	16DTT\	.	.	.	.	.	.	.	.
.	.	.	.	.	8dd\J	.	8dd\J	.	.	.	.	.	.	.	.	.	16DTT\	.	.	.	.	.	.	.	.
.	.	.	.	.	.	.	.	.	.	.	.	.	.	.	.	.	16DTT\JJ	.	.	.	.	.	.	.	.
4G#X\	.	.	4f#\	.	16ee\LL	.	16ee\LL	.	4G#X\	-us	4B\	-us	4f#\	-us	4dd\	-us	16DTT\LL	4d\	.	4f#\	.	4dd\	.	4ff#\	.
*	*	*	*	*	*	*	*	*	*	*Xij	*	*Xij	*	*Xij	*	*Xij	*	*	*	*	*	*	*	*	*
.	.	.	.	.	16dd\	.	16dd\	.	.	.	.	.	.	.	.	.	16DTT\	.	.	.	.	.	.	.	.
.	.	.	.	.	16cc#\	.	16cc#\	.	.	.	.	.	.	.	.	.	16DTT\	.	.	.	.	.	.	.	.
.	.	.	.	.	16dd\JJ	.	16dd\JJ	.	.	.	.	.	.	.	.	.	16DTT\JJ	.	.	.	.	.	.	.	.
*	*	*	*	*	*	*	*	*	*	*	*	*	*	*	*	*	*Xtremolo	*	*	*	*	*	*	*	*
!	!	!	!	!	!	!	!	!	!	!	!	!	!	!	!	!	!LO:LB:g=original	!	!	!	!	!	!	!	!
=18	=18	=18	=18	=18	=18	=18	=18	=18	=18	=18	=18	=18	=18	=18	=18	=18	=18	=18	=18	=18	=18	=18	=18	=18	=18
4A\	4	.	4f#\	.	8dd\L	.	8dd\L	.	8A\	Sa-	8A\	Sa-	8f#\	Sa-	8dd\	Sa-	4D/	4d\	.	4f#\	.	4dd\	.	4ff#\	.
.	.	.	.	.	16cc#\L	.	16cc#\L	.	8A\	-ba-	8A\	-ba-	8f#\	-ba-	8dd\	-ba-	.	.	.	.	.	.	.	.	.
.	.	.	.	.	16dd\JJ	.	16dd\JJ	.	.	.	.	.	.	.	.	.	.	.	.	.	.	.	.	.	.
!	!	!	!LO:TX:t=P:problem=mixed beam	!	!LO:TX:t=P:problem=mixed beam	!	!	!	!	!	!	!	!	!	!	!	!	!	!	!	!	!	!	!	!
!	!	!	!LO:TX:a:i:t=Solo&colon;	!	!LO:TX:a:i:t=Solo	!	!	!	!	!	!	!	!	!	!	!	!	!	!	!	!	!	!	!	!
4AA/	3	.	8e\L	.	8cc#\L	.	4cc#\	.	4AA/	-oth	4A\	-oth	4e\	-oth	4cc#\	-oth	4AA/	4A/	.	4e\	.	4cc#\	.	4ee\	.
.	.	.	(8A/	.	8c#/	.	.	.	.	.	.	.	.	.	.	.	.	.	.	.	.	.	.	.	.
4r	.	.	8B/	.	(8d/	.	8r	.	4r	.	4r	.	4r	.	4r	.	4r	4r	.	4r	.	4r	.	4r	.
!	!	!	!	!	!	!	!LO:TX:a:i:t=dol&colon;	!	!	!	!	!	!	!	!	!	!	!	!	!	!	!	!	!	!
.	.	.	8c#/J)	.	8e/J)	.	8a/	.	.	.	.	.	.	.	.	.	.	.	.	.	.	.	.	.	.
=19	=19	=19	=19	=19	=19	=19	=19	=19	=19	=19	=19	=19	=19	=19	=19	=19	=19	=19	=19	=19	=19	=19	=19	=19	=19
!LO:MO:mod=!LO&colon;TX&colon;a&colon;i&colon;t=pizzicato	!	!	!	!	!	!	!	!	!	!	!	!	!	!	!	!	!	!	!	!	!	!	!	!	!
!LO:TX:a:i:t=pizicatto	!	!	!	!	!	!	!	!	!	!	!	!	!	!	!	!	!LO:TX:a:t=4.:mod=	!	!	!	!	!	!	!	!
4D\	.	.	(8d/L	.	(8f#/L	.	8a#X/L	.	0.r	.	0.r	.	0.r	.	0.r	.	0.r	0.r	.	0.r	.	0.r	.	0.r	.
.	.	.	8B/)	.	8d/)	.	8b/J	.	.	.	.	.	.	.	.	.	.	.	.	.	.	.	.	.	.
!	!	!	!	!	!	!	!LO:LB:g=original	!	!	!	!	!	!	!	!	!	!	!	!	!	!	!	!	!	!
4D\	.	.	(8d/	.	(8f#/	.	4.dd\	.	.	.	.	.	.	.	.	.	.	.	.	.	.	.	.	.	.
.	.	.	8B/J)	.	8d/)	.	.	.	.	.	.	.	.	.	.	.	.	.	.	.	.	.	.	.	.
!	!	!	!LO:LB:g=original	!	!	!	!	!	!	!	!	!	!	!	!	!	!	!	!	!	!	!	!	!	!
4E\	.	.	(8G#X/L	.	(8B/	.	.	.	.	.	.	.	.	.	.	.	.	.	.	.	.	.	.	.	.
.	.	.	8B/J)	.	8d/J)	.	(16b/LL	.	.	.	.	.	.	.	.	.	.	.	.	.	.	.	.	.	.
.	.	.	.	.	.	.	16g#X/JJ)	.	.	.	.	.	.	.	.	.	.	.	.	.	.	.	.	.	.
!	!	!	!	!	!LO:PB:g=original	!	!	!	!	!	!	!	!	!	!	!	!	!	!	!	!	!	!	!	!
=20	=20	=20	=20	=20	=20	=20	=20	=20	=20	=20	=20	=20	=20	=20	=20	=20	=20	=20	=20	=20	=20	=20	=20	=20	=20
4r	.	.	(8A/L	.	(8c#/L	.	8a/L	.	.	.	.	.	.	.	.	.	.	.	.	.	.	.	.	.	.
.	.	.	8c#/)	.	8e/)	.	8cc#/J	.	.	.	.	.	.	.	.	.	.	.	.	.	.	.	.	.	.
4A\	.	.	(8A/	.	(8c#/	.	(4.ee\	.	.	.	.	.	.	.	.	.	.	.	.	.	.	.	.	.	.
.	.	.	8c#/)	.	8e/)	.	.	.	.	.	.	.	.	.	.	.	.	.	.	.	.	.	.	.	.
4AA/	.	.	(8A/	.	(8c#/	.	.	.	.	.	.	.	.	.	.	.	.	.	.	.	.	.	.	.	.
.	.	.	8c#/J)	.	8e/J)	.	16dd\LL	.	.	.	.	.	.	.	.	.	.	.	.	.	.	.	.	.	.
.	.	.	.	.	.	.	16cc#\JJ)	.	.	.	.	.	.	.	.	.	.	.	.	.	.	.	.	.	.
=21	=21	=21	=21	=21	=21	=21	=21	=21	=21	=21	=21	=21	=21	=21	=21	=21	=21	=21	=21	=21	=21	=21	=21	=21	=21
4r	.	.	8d/L	.	(8f#/L	.	(16cc#\LL	.	.	.	.	.	.	.	.	.	.	.	.	.	.	.	.	.	.
.	.	.	.	.	.	.	16b\	.	.	.	.	.	.	.	.	.	.	.	.	.	.	.	.	.	.
.	.	.	8B/	.	8d/)	.	16a#X\	.	.	.	.	.	.	.	.	.	.	.	.	.	.	.	.	.	.
.	.	.	.	.	.	.	16b\JJ)	.	.	.	.	.	.	.	.	.	.	.	.	.	.	.	.	.	.
4D\	.	.	8d/	.	(8f#/	.	4.dd\	.	.	.	.	.	.	.	.	.	.	.	.	.	.	.	.	.	.
.	.	.	8B/	.	8d/)	.	.	.	.	.	.	.	.	.	.	.	.	.	.	.	.	.	.	.	.
4E\	.	.	8G#X/	.	8B/	.	.	.	.	.	.	.	.	.	.	.	.	.	.	.	.	.	.	.	.
.	.	.	8B/J	.	8d/J	.	(16b/LL	.	.	.	.	.	.	.	.	.	.	.	.	.	.	.	.	.	.
.	.	.	.	.	.	.	16g#X/JJ)	.	.	.	.	.	.	.	.	.	.	.	.	.	.	.	.	.	.
=22	=22	=22	=22	=22	=22	=22	=22	=22	=22	=22	=22	=22	=22	=22	=22	=22	=22	=22	=22	=22	=22	=22	=22	=22	=22
!	!	!	!	!	!	!	!LO:SIC:v:s=8g#/L	!	!	!	!	!	!	!	!	!	!	!	!	!	!	!	!	!	!
4A\	.	.	8B/L	.	8d/L	.	8g/L	.	.	.	.	.	.	.	.	.	.	.	.	.	.	.	.	.	.
.	.	.	8A/J	.	8c#/J	.	8a/J	.	.	.	.	.	.	.	.	.	.	.	.	.	.	.	.	.	.
4AA/	.	.	4E/	.	4c#/	.	4a/	.	.	.	.	.	.	.	.	.	.	.	.	.	.	.	.	.	.
4r	.	.	4r	.	4r	.	4r	.	.	.	.	.	.	.	.	.	.	.	.	.	.	.	.	.	.
!LO:LB:g=original	!	!	!LO:LB:g=original	!	!LO:LB:g=original	!	!LO:LB:g=original	!	!	!	!	!	!LO:LB:g=original	!	!LO:LB:g=original	!	!	!LO:LB:g=original	!	!	!	!LO:LB:g=original	!	!LO:LB:g=original	!
=23||	=23||	=23||	=23||	=23||	=23||	=23||	=23||	=23||	=23||	=23||	=23||	=23||	=23||	=23||	=23||	=23||	=23||	=23||	=23||	=23||	=23||	=23||	=23||	=23||	=23||
!!!OMD:
!!!OMD-mod: Allegro
*k[f#c#]	*	*	*k[f#c#]	*	*k[f#c#]	*	*k[f#c#]	*	*k[f#c#]	*	*k[c#f#]	*	*k[f#c#]	*	*k[f#c#]	*	*	*k[f#c#]	*	*k[f#c#]	*	*k[f#c#]	*	*k[f#c#]	*
*M3/4	*	*	*M3/4	*	*M3/4	*	*M3/4	*	*M3/4	*	*M3/4	*	*M3/4	*	*M3/4	*	*M3/4	*M3/4	*	*M3/4	*	*M3/4	*	*M3/4	*
!	!	!	!	!	!	!	!	!	!	!	!	!	!LO:MO:mod=!LO&colon;TX&colon;a&colon;i&colon;t=Solo	!	!	!	!LO:TX:b:t=8.	!	!	!	!	!LO:MO:mod=!LO&colon;TX&colon;a&colon;i&colon;t=Solo	!LO:MO:null:mod=!LO&colon;DY&colon;ed=brack	!	!LO:MO:null:mod=!LO&colon;DY&colon;ed=brack
!	!	!	!	!	!	!	!	!	!	!	!	!	!LO:TX:a:i:t=Solo&colon;	!	!LO:TX:a:i:t=Solo	!	!LO:TX:b:Bi:t=Pleni:mod=	!	!	!	!	!LO:TX:a:i:t=Solo&colon;	!null	!LO:TX:a:i:t=Solo	!null
!LO:TX:a:Bi:t=allegro:mod=	!	!LO:DY:a:t=pio	!LO:TX:a:Bi:t=alegro:mod=	!LO:DY:a:t=pio&colon;	!LO:TX:a:Bi:t=allegro:mod=	!LO:DY:a:t=pio	!LO:TX:a:Bi:t=alegro:mod=	!LO:DY:a:t=pio&colon;	!LO:TX:a:Bi:t=allegro:mod=	!	!LO:TX:a:Bi:t=allegro:mod=	!	!LO:TX:a:Bi:t=allegro:mod=	!	!LO:TX:a:Bi:t=allegro:mod=	!LO:MO:mod=Ple-	!LO:TX:a:Bi:t=Allegro:mod=	!LO:TX:a:Bi:t=allegro:mod=	!	!LO:TX:a:Bi:t=alegro:mod=	!	!LO:TX:a:Bi:t=allegro:mod=	!LO:MO:null:mod=p	!LO:TX:a:Bi:t=allegro&colon;:mod=	!LO:MO:null:mod=p
8D\L	.	p	8d\L	p	4d/	p	4f#/	p	0.r	.	0.r	.	4f#\	Ple-	4dd\	ple-	0.r	0.r	.	0.r	.	4dd\	.	4ff#\	.
8D\	.	.	8d\	.	.	.	.	.	.	.	.	.	.	.	.	.	.	.	.	.	.	.	.	.	.
8D\	.	.	8d\	.	4d/	.	4f#/	.	.	.	.	.	4f#\	-ni	4dd\	-ni	.	.	.	.	.	4dd\	.	4ff#\	.
8D\	.	.	8d\	.	.	.	.	.	.	.	.	.	.	.	.	.	.	.	.	.	.	.	.	.	.
!	!	!	!	!	!	!	!	!	!	!	!	!	!	!LO:MO:mod=sunt	!	!LO:MO:mod=sunt	!	!	!	!	!	!	!	!	!
8D\	4 2	.	8d\	.	4e/	.	4g/	.	.	.	.	.	4g\	Sunt	4ee\	Sunt	.	.	.	.	.	4ee\	.	4gg\	.
8D\J	.	.	8d\J	.	.	.	.	.	.	.	.	.	.	.	.	.	.	.	.	.	.	.	.	.	.
=24	=24	=24	=24	=24	=24	=24	=24	=24	=24	=24	=24	=24	=24	=24	=24	=24	=24	=24	=24	=24	=24	=24	=24	=24	=24
*	*	*	*tremolo	*	*	*	*	*	*	*	*	*	*	*	*	*	*	*	*	*	*	*	*	*	*
!	!	!	!	!	!	!	!	!	!	!	!	!	!	!LO:MO:mod=cae-	!	!LO:MO:mod=cae-	!	!	!	!	!	!	!	!	!
8D\L	3_	.	8d\L	.	2f#/	.	2a/	.	.	.	.	.	2a\	Cae-	2ff#\	Cae-	.	.	.	.	.	2ff#\	.	2aa\	.
8D\	.	.	8d\	.	.	.	.	.	.	.	.	.	.	.	.	.	.	.	.	.	.	.	.	.	.
8D\	.	.	8d\	.	.	.	.	.	.	.	.	.	.	.	.	.	.	.	.	.	.	.	.	.	.
8D\	.	.	8d\	.	.	.	.	.	.	.	.	.	.	.	.	.	.	.	.	.	.	.	.	.	.
8D\	4 2	.	8d\	.	4e/	.	4g/	.	.	.	.	.	4g\	-li	4ee\	-li	.	.	.	.	.	4ee\	.	4gg\	.
8D\J	.	.	8d\J	.	.	.	.	.	.	.	.	.	.	.	.	.	.	.	.	.	.	.	.	.	.
=25	=25	=25	=25	=25	=25	=25	=25	=25	=25	=25	=25	=25	=25	=25	=25	=25	=25	=25	=25	=25	=25	=25	=25	=25	=25
*	*	*	*	*	*	*	*	*	*	*	*	*	*	*ij	*	*ij	*	*	*	*	*	*	*	*	*
!	!	!	!	!	!	!	!	!	!	!	!	!	!	!	!	!LO:MO:mod=Ple-	!	!	!	!	!	!	!	!	!
8D\L	3_	.	8d\L	.	4d/	.	4f#/	.	.	.	.	.	4f#\	Ple-	4dd\	ple-	.	.	.	.	.	4dd\	.	4ff#\	.
8D\	.	.	8d\	.	.	.	.	.	.	.	.	.	.	.	.	.	.	.	.	.	.	.	.	.	.
8D\	.	.	8d\	.	4d/	.	4f#/	.	.	.	.	.	4f#\	-ni	4dd\	-ni	.	.	.	.	.	4dd\	.	4ff#\	.
8D\	.	.	8d\	.	.	.	.	.	.	.	.	.	.	.	.	.	.	.	.	.	.	.	.	.	.
!	!	!	!	!	!	!	!	!	!	!	!	!	!	!LO:MO:mod=sunt	!	!LO:MO:mod=sunt	!	!	!	!	!	!	!	!	!
8D\	4_ 2_	.	8d\	.	4e/	.	4g/	.	.	.	.	.	4g\	Sunt	4ee\	Sunt	.	.	.	.	.	4ee\	.	4gg\	.
8D\J	.	.	8d\J	.	.	.	.	.	.	.	.	.	.	.	.	.	.	.	.	.	.	.	.	.	.
=26	=26	=26	=26	=26	=26	=26	=26	=26	=26	=26	=26	=26	=26	=26	=26	=26	=26	=26	=26	=26	=26	=26	=26	=26	=26
!	!	!	!	!	!	!	!	!	!	!	!	!	!	!LO:MO:mod=cae-	!	!LO:MO:mod=cae-	!	!	!	!	!	!	!	!	!
8D\L	3_	.	8d\L	.	2f#/	.	2a/	.	.	.	.	.	2a\	Cae-	2ff#\	Cae-	.	.	.	.	.	2ff#\	.	2aa\	.
8D\	.	.	8d\	.	.	.	.	.	.	.	.	.	.	.	.	.	.	.	.	.	.	.	.	.	.
8D\	.	.	8d\	.	.	.	.	.	.	.	.	.	.	.	.	.	.	.	.	.	.	.	.	.	.
8D\	.	.	8d\	.	.	.	.	.	.	.	.	.	.	.	.	.	.	.	.	.	.	.	.	.	.
8D\	4_ 2_	.	8d\	.	4e/	.	4g/	.	.	.	.	.	4g\	-li	4ee\	-li	.	.	.	.	.	4ee\	.	4gg\	.
*	*	*	*	*	*	*	*	*	*	*	*	*	*	*Xij	*	*	*	*	*	*	*	*	*	*	*
8D\J	.	.	8d\J	.	.	.	.	.	.	.	.	.	.	.	.	.	.	.	.	.	.	.	.	.	.
=27	=27	=27	=27	=27	=27	=27	=27	=27	=27	=27	=27	=27	=27	=27	=27	=27	=27	=27	=27	=27	=27	=27	=27	=27	=27
8D\L	3_	.	8d\L	.	4d/	.	4f#/	.	0.r	.	0.r	.	4f#\	ple-	4dd\	ple-	0.r	0.r	.	0.r	.	4dd\	.	4ff#\	.
8D\	.	.	8d\	.	.	.	.	.	.	.	.	.	.	.	.	.	.	.	.	.	.	.	.	.	.
8D\	.	.	8d\	.	4d/	.	4f#/	.	.	.	.	.	4f#\	-ni	4dd\	-ni	.	.	.	.	.	4dd\	.	4ff#\	.
8D\	.	.	8d\	.	.	.	.	.	.	.	.	.	.	.	.	.	.	.	.	.	.	.	.	.	.
!	!	!	!	!	!	!	!	!	!	!	!	!	!	!LO:MO:mod=sunt	!	!LO:MO:mod=sunt	!	!	!	!	!	!	!	!	!
8D\	4_ 2_	.	8d\	.	4e/	.	4g/	.	.	.	.	.	4g\	Sunt	4ee\	Sunt	.	.	.	.	.	4ee\	.	4gg\	.
8D\J	.	.	8d\J	.	.	.	.	.	.	.	.	.	.	.	.	.	.	.	.	.	.	.	.	.	.
!LO:LB:g=original	!	!	!	!	!	!	!	!	!	!	!	!	!LO:LB:g=original	!	!	!	!	!	!	!	!	!	!	!	!
=28	=28	=28	=28	=28	=28	=28	=28	=28	=28	=28	=28	=28	=28	=28	=28	=28	=28	=28	=28	=28	=28	=28	=28	=28	=28
!	!	!	!	!	!	!	!	!	!	!	!	!	!	!LO:MO:mod=cae-	!	!LO:MO:mod=cae-	!	!	!	!	!	!	!	!	!
8D\L	x	.	8d\L	.	4f#/	.	4a/	.	.	.	.	.	4a\	Cae-	4ff#\	Cae-	.	.	.	.	.	4ff#\	.	4aa\	.
8D\	.	.	8d\	.	.	.	.	.	.	.	.	.	.	.	.	.	.	.	.	.	.	.	.	.	.
8D\	.	.	8d\	.	4d/	.	4f#/	.	.	.	.	.	4f#\	-li	4dd\	-li	.	.	.	.	.	4dd\	.	4ff#\	.
*	*	*	*	*	*	*	*	*	*	*	*	*	*	*	*	*Xij	*	*	*	*	*	*	*	*	*
8D\	.	.	8d\	.	.	.	.	.	.	.	.	.	.	.	.	.	.	.	.	.	.	.	.	.	.
!	!	!	!	!	!	!	!	!	!	!	!	!	!	!LO:MO:mod=sunt	!	!LO:MO:mod=sunt	!	!	!	!	!	!	!	!	!
8D\	.	.	8d\	.	4f#/	.	4a/	.	.	.	.	.	4a\	Sunt	4ff#\	Sunt	.	.	.	.	.	4ff#\	.	4aa\	.
8D\J	.	.	8d\J	.	.	.	.	.	.	.	.	.	.	.	.	.	.	.	.	.	.	.	.	.	.
!	!	!	!	!	!	!	!	!	!	!	!	!	!	!	!LO:LB:g=original	!	!	!	!	!	!	!	!	!	!
=29	=29	=29	=29	=29	=29	=29	=29	=29	=29	=29	=29	=29	=29	=29	=29	=29	=29	=29	=29	=29	=29	=29	=29	=29	=29
!	!	!	!	!	!	!	!	!	!	!	!	!	!	!LO:MO:mod=cae-	!	!LO:MO:mod=cae-	!	!	!	!	!	!	!	!	!
8G\L	6_	.	8B/L	.	4g/	.	4b/	.	.	.	.	.	4b\	Cae-	4gg\	Cae-	.	.	.	.	.	4gg\	.	4bb\	.
8G\	.	.	8B/	.	.	.	.	.	.	.	.	.	.	.	.	.	.	.	.	.	.	.	.	.	.
!	!	!	!	!	!	!	!	!	!	!	!	!	!	!	!LO:SIC:v:s=4ee\	!	!	!	!	!	!	!	!	!	!
8G\	.	.	8B/	.	4e/	.	4g/	.	.	.	.	.	4g\	-li	4ff#\	-li	.	.	.	.	.	4ee\	.	4gg\	.
8G\	.	.	8B/	.	.	.	.	.	.	.	.	.	.	.	.	.	.	.	.	.	.	.	.	.	.
!	!	!	!	!	!	!	!	!	!	!	!	!	!	!LO:MO:mod=et	!LO:SIC:v:s=4dd\	!LO:MO:mod=et	!	!	!	!	!	!	!	!	!
8G#X\	5	.	8B/	.	4d/	.	4f#/	.	.	.	.	.	4f#\	&	4ee\	&	.	.	.	.	.	4dd\	.	4ff#\	.
8G#\J	.	.	8B/J	.	.	.	.	.	.	.	.	.	.	.	.	.	.	.	.	.	.	.	.	.	.
*	*	*	*Xtremolo	*	*	*	*	*	*	*	*	*	*	*	*	*	*	*	*	*	*	*	*	*	*
!	!	!	!	!	!	!	!	!	!	!	!	!	!	!	!	!	!	!	!	!	!	!LO:LB:g=original	!	!LO:LB:g=original	!
=30	=30	=30	=30	=30	=30	=30	=30	=30	=30	=30	=30	=30	=30	=30	=30	=30	=30	=30	=30	=30	=30	=30	=30	=30	=30
!	!	!	!	!	!	!	!	!	!	!	!	!	!	!	!LO:SIC:v:s=4dd\	!	!	!	!	!	!	!	!	!	!
4A\	4	.	4A/	.	4d/	.	4f#/	.	.	.	.	.	4f#\	ter-	4ee\	ter-	.	.	.	.	.	4dd\	.	4ff#\	.
!	!	!	!	!	!	!	!	!	!	!	!	!	!	!	!LO:SIC:v:s=4cc#	!	!	!	!	!	!	!	!	!	!
8A\L	3	.	4A/	.	4c#/	.	4e/	.	.	.	.	.	4e\	-ra	4dd\	-ra	.	.	.	.	.	4cc#\	.	4ee\	.
8Gn\	.	.	.	.	.	.	.	.	.	.	.	.	.	.	.	.	.	.	.	.	.	.	.	.	.
!	!	!	!	!	!	!	!	!	!	!	!	!	!	!	!	!	!	!	!	!	!	!LO:TX:b:i:t=Verte Cito:mod=	!	!LO:TX:b:i:t=Verte Cito:mod=	!
8F#\	.	.	4r	.	4r	.	4r	.	.	.	.	.	4r	.	4r	.	.	.	.	.	.	4r	.	4r	.
!LO:TX:a:i:t=tutti:mod=	!	!	!	!	!	!	!	!	!	!	!	!	!	!	!	!	!	!	!	!	!	!	!	!	!
8E\J	.	.	.	.	.	.	.	.	.	.	.	.	.	.	.	.	.	.	.	.	.	.	.	.	.
!	!	!	!LO:LB:g=original	!	!LO:LB:g=original	!	!LO:LB:g=original	!	!	!	!	!	!	!	!	!	!	!	!	!	!	!LO:PB:g=original	!	!LO:PB:g=original	!
=31	=31	=31	=31	=31	=31	=31	=31	=31	=31	=31	=31	=31	=31	=31	=31	=31	=31	=31	=31	=31	=31	=31	=31	=31	=31
*	*	*	*	*	*	*	*	*	*	*	*	*	*	*	*	*	*tremolo	*	*	*	*	*	*	*	*
!LO:MO:mod=!LO&colon;TX&colon;a&colon;i&colon;t=tutti	!	!	!	!	!	!	!	!	!	!	!	!	!	!	!	!	!	!	!	!	!	!	!	!	!
!null	!	!	!	!LO:DY:a	!	!LO:DY:a	!	!LO:DY:a:t=for&colon;	!	!LO:MO:mod=Ple-	!	!	!	!LO:MO:mod=Ple-	!	!LO:MO:mod=Ple-	!	!	!LO:DY:a	!	!LO:DY:a:t=for&colon;	!	!LO:DY:a	!	!LO:DY:a
8D\L	.	.	8d\L	f	4dd\	f	4ff#\	f	4D\	ple-	4d\	Ple-	4f#\	ple-	4dd\	ple-	16DT\LL	2.D/	f	2.d\	f	2dd\	f	2ff#\	f
.	.	.	.	.	.	.	.	.	.	.	.	.	.	.	.	.	16DTT\	.	.	.	.	.	.	.	.
8D\	.	.	8d\	.	.	.	.	.	.	.	.	.	.	.	.	.	16DTT\	.	.	.	.	.	.	.	.
.	.	.	.	.	.	.	.	.	.	.	.	.	.	.	.	.	16DTT\	.	.	.	.	.	.	.	.
!	!	!	!	!	!	!	!LO:TX:a:B:t=t:mod=	!	!	!	!	!	!	!	!	!	!	!	!	!	!	!	!	!	!
!	!	!	!	!	!	!	!LO:SIC:s=8.ff#tL	!	!	!	!	!	!	!	!	!	!	!	!	!	!	!	!	!	!
8D\	.	.	8d\	.	8.dd\L	.	8.ff#\L	.	4D\	-ni	4d\	-ni	4f#\	-ni	4dd\	-ni	16DTT\	.	.	.	.	.	.	.	.
.	.	.	.	.	.	.	.	.	.	.	.	.	.	.	.	.	16DTT\	.	.	.	.	.	.	.	.
8D\	.	.	8d\	.	.	.	.	.	.	.	.	.	.	.	.	.	16DTT\	.	.	.	.	.	.	.	.
.	.	.	.	.	32cc#\LL	.	32ee\LL	.	.	.	.	.	.	.	.	.	16DTT\	.	.	.	.	.	.	.	.
.	.	.	.	.	32dd\JJJ	.	32ff#\JJJ	.	.	.	.	.	.	.	.	.	.	.	.	.	.	.	.	.	.
!	!	!	!	!	!	!	!LO:TX:a:B:t=t:mod=	!	!	!LO:MO:mod=sunt	!	!LO:MO:mod=sunt	!	!LO:MO:mod=sunt	!	!LO:MO:mod=sunt	!	!	!	!	!	!	!	!	!
!	!	!	!	!	!	!	!LO:SIC:s=8.ggLT	!	!	!	!	!	!	!	!	!	!	!	!	!	!	!	!	!	!
8D\	4 2	.	8d\	.	8.ee\L	.	8.gg\L	.	4D\	Sunt	4d\	Sunt	4g\	Sunt	4ee\	Sunt	16DTT\	.	.	.	.	4ee\	.	4gg\	.
.	.	.	.	.	.	.	.	.	.	.	.	.	.	.	.	.	16DTT\	.	.	.	.	.	.	.	.
8D\J	.	.	8d\J	.	.	.	.	.	.	.	.	.	.	.	.	.	16DTT\	.	.	.	.	.	.	.	.
.	.	.	.	.	32dd\LL	.	32ff#\LL	.	.	.	.	.	.	.	.	.	16DTT\JJ	.	.	.	.	.	.	.	.
.	.	.	.	.	32ee\JJJ	.	32gg\JJJ	.	.	.	.	.	.	.	.	.	.	.	.	.	.	.	.	.	.
=32	=32	=32	=32	=32	=32	=32	=32	=32	=32	=32	=32	=32	=32	=32	=32	=32	=32	=32	=32	=32	=32	=32	=32	=32	=32
*	*	*	*tremolo	*	*	*	*	*	*	*	*	*	*	*	*	*	*	*	*	*	*	*	*	*	*
!	!	!	!	!	!	!	!	!	!	!LO:MO:mod=cae-	!	!LO:MO:mod=cae-	!	!LO:MO:mod=cae-	!	!LO:MO:mod=cae-	!	!	!	!	!	!	!	!	!
8D\L	3_	.	8d\L	.	4.ff#\	.	4.aa\	.	2D\	Cae-	2d\	Cae-	2a\	Cae-	2ff#\	Cae-	16DT\LL	2.D/	.	2.d\	.	2ff#\	.	2aa\	.
.	.	.	.	.	.	.	.	.	.	.	.	.	.	.	.	.	16DTT\	.	.	.	.	.	.	.	.
8D\	.	.	8d\	.	.	.	.	.	.	.	.	.	.	.	.	.	16DTT\	.	.	.	.	.	.	.	.
.	.	.	.	.	.	.	.	.	.	.	.	.	.	.	.	.	16DTT\	.	.	.	.	.	.	.	.
8D\	.	.	8d\	.	.	.	.	.	.	.	.	.	.	.	.	.	16DTT\	.	.	.	.	.	.	.	.
.	.	.	.	.	.	.	.	.	.	.	.	.	.	.	.	.	16DTT\	.	.	.	.	.	.	.	.
8D\	.	.	8d\	.	16ee\LL	.	16gg\LL	.	.	.	.	.	.	.	.	.	16DTT\	.	.	.	.	.	.	.	.
.	.	.	.	.	16ff#\JJ	.	16aa\JJ	.	.	.	.	.	.	.	.	.	16DTT\	.	.	.	.	.	.	.	.
8D\	4 2	.	8d\	.	8gg\L	.	8bb\L	.	4D\	-li	4d\	-li	4g\	-li	4ee\	-li	16DTT\	.	.	.	.	4ee\	.	4gg\	.
.	.	.	.	.	.	.	.	.	.	.	.	.	.	.	.	.	16DTT\	.	.	.	.	.	.	.	.
8D\J	.	.	8d\J	.	8ee\J	.	8ff#\J	.	.	.	.	.	.	.	.	.	16DTT\	.	.	.	.	.	.	.	.
.	.	.	.	.	.	.	.	.	.	.	.	.	.	.	.	.	16DTT\JJ	.	.	.	.	.	.	.	.
=33	=33	=33	=33	=33	=33	=33	=33	=33	=33	=33	=33	=33	=33	=33	=33	=33	=33	=33	=33	=33	=33	=33	=33	=33	=33
*	*	*	*	*	*	*	*	*	*	*ij	*	*ij	*	*	*	*ij	*	*	*	*	*	*	*	*	*
!	!	!	!	!	!	!	!	!	!	!LO:MO:mod=Ple-	!	!	!	!LO:MO:mod=Ple-	!	!LO:MO:mod=Ple-	!	!	!	!	!	!	!	!	!
8D\L	3_	.	8d\L	.	4dd\	.	4ff#\	.	4D\	ple-	4d\	Ple-	4f#\	ple-	4dd\	ple-	16DT\LL	2.D/	.	2.d\	.	2dd\	.	2ff#\	.
.	.	.	.	.	.	.	.	.	.	.	.	.	.	.	.	.	16DTT\	.	.	.	.	.	.	.	.
8D\	.	.	8d\	.	.	.	.	.	.	.	.	.	.	.	.	.	16DTT\	.	.	.	.	.	.	.	.
.	.	.	.	.	.	.	.	.	.	.	.	.	.	.	.	.	16DTT\	.	.	.	.	.	.	.	.
!	!	!	!	!	!	!	!LO:TX:a:B:t=t:mod=	!	!	!	!	!	!	!	!	!	!	!	!	!	!	!	!	!	!
!	!	!	!	!	!	!	!LO:SIC:s=8.ff#tL	!	!	!	!	!	!	!	!	!	!	!	!	!	!	!	!	!	!
8D\	.	.	8d\	.	8.dd\L	.	8.ff#\L	.	4D\	-ni	4d\	-ni	4f#\	-ni	4dd\	-ni	16DTT\	.	.	.	.	.	.	.	.
.	.	.	.	.	.	.	.	.	.	.	.	.	.	.	.	.	16DTT\	.	.	.	.	.	.	.	.
8D\	.	.	8d\	.	.	.	.	.	.	.	.	.	.	.	.	.	16DTT\	.	.	.	.	.	.	.	.
.	.	.	.	.	32cc#\LL	.	32ee\LL	.	.	.	.	.	.	.	.	.	16DTT\	.	.	.	.	.	.	.	.
.	.	.	.	.	32dd\JJJ	.	32ff#\JJJ	.	.	.	.	.	.	.	.	.	.	.	.	.	.	.	.	.	.
!	!	!	!	!	!	!	!LO:TX:a:B:t=t:mod=	!	!	!LO:MO:mod=sunt	!	!LO:MO:mod=sunt	!	!LO:MO:mod=sunt	!	!LO:MO:mod=sunt	!	!	!	!	!	!	!	!	!
!	!	!	!	!	!	!	!LO:SIC:s=8.ggTL	!	!	!	!	!	!	!	!	!	!	!	!	!	!	!	!	!	!
8D\	4 2	.	8d\	.	8.ee\L	.	8.gg\L	.	4D\	Sunt	4d\	Sunt	4g\	Sunt	4ee\	Sunt	16DTT\	.	.	.	.	4ee\	.	4gg\	.
.	.	.	.	.	.	.	.	.	.	.	.	.	.	.	.	.	16DTT\	.	.	.	.	.	.	.	.
8D\J	.	.	8d\J	.	.	.	.	.	.	.	.	.	.	.	.	.	16DTT\	.	.	.	.	.	.	.	.
.	.	.	.	.	32dd\LL	.	32ff#\LL	.	.	.	.	.	.	.	.	.	16DTT\JJ	.	.	.	.	.	.	.	.
.	.	.	.	.	32ee\JJJ	.	32gg\JJJ	.	.	.	.	.	.	.	.	.	.	.	.	.	.	.	.	.	.
!LO:LB:g=original	!	!	!	!	!	!	!	!	!	!	!	!	!LO:LB:g=original	!	!	!	!	!	!	!	!	!	!	!	!
=34	=34	=34	=34	=34	=34	=34	=34	=34	=34	=34	=34	=34	=34	=34	=34	=34	=34	=34	=34	=34	=34	=34	=34	=34	=34
!	!	!	!	!	!	!	!	!	!	!LO:MO:mod=cae-	!	!LO:MO:mod=cae-	!	!LO:MO:mod=cae-	!	!LO:MO:mod=cae-	!	!	!	!	!	!	!	!	!
8D\L	3_	.	8d\L	.	4.ff#\	.	4.aa\	.	2D\	Cae-	2d\	Cae-	2a\	Cae-	2ff#\	Cae-	16DT\LL	2.D/	.	2.d\	.	2ff#\	.	2aa\	.
.	.	.	.	.	.	.	.	.	.	.	.	.	.	.	.	.	16DTT\	.	.	.	.	.	.	.	.
8D\	.	.	8d\	.	.	.	.	.	.	.	.	.	.	.	.	.	16DTT\	.	.	.	.	.	.	.	.
.	.	.	.	.	.	.	.	.	.	.	.	.	.	.	.	.	16DTT\	.	.	.	.	.	.	.	.
8D\	.	.	8d\	.	.	.	.	.	.	.	.	.	.	.	.	.	16DTT\	.	.	.	.	.	.	.	.
.	.	.	.	.	.	.	.	.	.	.	.	.	.	.	.	.	16DTT\	.	.	.	.	.	.	.	.
8D\	.	.	8d\	.	16ee\LL	.	16gg\LL	.	.	.	.	.	.	.	.	.	16DTT\	.	.	.	.	.	.	.	.
.	.	.	.	.	16ff#\JJ	.	16aa\JJ	.	.	.	.	.	.	.	.	.	16DTT\	.	.	.	.	.	.	.	.
8D\	4 2	.	8d\	.	8gg\L	.	8bb\L	.	4D\	-li	4d\	-li	4g\	-li	4ee\	-li	16DTT\	.	.	.	.	4ee\	.	4gg\	.
*	*	*	*	*	*	*	*	*	*	*	*	*Xij	*	*	*	*Xij	*	*	*	*	*	*	*	*	*
.	.	.	.	.	.	.	.	.	.	.	.	.	.	.	.	.	16DTT\	.	.	.	.	.	.	.	.
8D\J	.	.	8d\J	.	8ee\J	.	8gg\J	.	.	.	.	.	.	.	.	.	16DTT\	.	.	.	.	.	.	.	.
.	.	.	.	.	.	.	.	.	.	.	.	.	.	.	.	.	16DTT\JJ	.	.	.	.	.	.	.	.
!	!	!	!	!	!	!	!	!	!	!	!	!	!	!	!	!LO:LB:g=original	!	!	!	!	!	!	!	!	!
=35	=35	=35	=35	=35	=35	=35	=35	=35	=35	=35	=35	=35	=35	=35	=35	=35	=35	=35	=35	=35	=35	=35	=35	=35	=35
!	!	!	!	!	!	!	!	!	!	!	!	!	!	!	!	!LO:MO:mod=ple-	!	!	!	!	!	!	!	!	!
8D\L	3_	.	8d\L	.	4dd\	.	4ff#\	.	4D\	ple-	4d\	ple-	4f#\	ple-	4dd\	Ple-	16DT\LL	2.D/	.	2.d\	.	2dd\	.	2ff#\	.
.	.	.	.	.	.	.	.	.	.	.	.	.	.	.	.	.	16DTT\	.	.	.	.	.	.	.	.
8D\	.	.	8d\	.	.	.	.	.	.	.	.	.	.	.	.	.	16DTT\	.	.	.	.	.	.	.	.
.	.	.	.	.	.	.	.	.	.	.	.	.	.	.	.	.	16DTT\	.	.	.	.	.	.	.	.
!	!	!	!	!	!	!	!LO:TX:a:B:t=t:mod=	!	!	!	!	!	!	!	!	!	!	!	!	!	!	!	!	!	!
!	!	!	!	!	!	!	!LO:SIC:s=8.ff#tL	!	!	!	!	!	!	!	!	!	!	!	!	!	!	!	!	!	!
8D\	.	.	8d\	.	8.dd\L	.	8.ff#\L	.	4D\	-ni	4d\	-ni	4f#\	-ni	4dd\	-ni	16DTT\	.	.	.	.	.	.	.	.
.	.	.	.	.	.	.	.	.	.	.	.	.	.	.	.	.	16DTT\	.	.	.	.	.	.	.	.
8D\	.	.	8d\	.	.	.	.	.	.	.	.	.	.	.	.	.	16DTT\	.	.	.	.	.	.	.	.
.	.	.	.	.	32cc#\LL	.	32ee\LL	.	.	.	.	.	.	.	.	.	16DTT\	.	.	.	.	.	.	.	.
.	.	.	.	.	32dd\JJJ	.	32ff#\JJJ	.	.	.	.	.	.	.	.	.	.	.	.	.	.	.	.	.	.
!	!	!	!	!	!	!	!LO:TX:a:B:t=t:mod=	!	!	!LO:MO:mod=sunt	!	!LO:MO:mod=sunt	!	!LO:MO:mod=sunt	!	!LO:MO:mod=sunt	!	!	!	!	!	!	!	!	!
!	!	!	!	!	!	!	!LO:SIC:s=8.ggTL	!	!	!	!	!	!	!	!	!	!	!	!	!	!	!	!	!	!
8D\	.	.	8d\	.	8.ee\L	.	8.gg\L	.	4D\	Sunt	4d\	Sunt	4g\	Sunt	4ee\	Sunt	16DTT\	.	.	.	.	4ee\	.	4gg\	.
.	.	.	.	.	.	.	.	.	.	.	.	.	.	.	.	.	16DTT\	.	.	.	.	.	.	.	.
8D\J	.	.	8d\J	.	.	.	.	.	.	.	.	.	.	.	.	.	16DTT\	.	.	.	.	.	.	.	.
.	.	.	.	.	32dd\LL	.	32ff#\LL	.	.	.	.	.	.	.	.	.	16DTT\JJ	.	.	.	.	.	.	.	.
.	.	.	.	.	32ee\JJJ	.	32gg\JJJ	.	.	.	.	.	.	.	.	.	.	.	.	.	.	.	.	.	.
!	!	!	!	!	!LO:LB:g=original	!	!LO:LB:g=original	!	!	!	!LO:LB:g=original	!	!	!	!	!	!	!	!	!	!	!	!	!	!
=36	=36	=36	=36	=36	=36	=36	=36	=36	=36	=36	=36	=36	=36	=36	=36	=36	=36	=36	=36	=36	=36	=36	=36	=36	=36
*2\right	*	*	*	*	*	*	*	*	*	*	*	*	*	*	*	*	*	*	*	*	*	*	*	*	*
*tremolo	*	*	*	*	*	*	*	*	*	*	*	*	*	*	*	*	*	*	*	*	*	*	*	*	*
!	!	!	!	!	!	!	!	!	!	!LO:MO:mod=cae-	!	!LO:MO:mod=cae-	!	!LO:MO:mod=cae-	!	!LO:MO:mod=cae-	!	!	!	!	!	!	!	!	!
8D\L	x	.	8d\L	.	4ff#\	.	4aa\	.	2D\	Cae-	2d\	Cae-	2a\	Cae-	2ff#\	Cae-	16DT\LL	2D/	.	2d\	.	2.ff#\	.	2.aa\	.
.	.	.	.	.	.	.	.	.	.	.	.	.	.	.	.	.	16DTT\	.	.	.	.	.	.	.	.
8D\	.	.	8d\	.	.	.	.	.	.	.	.	.	.	.	.	.	16DTT\	.	.	.	.	.	.	.	.
.	.	.	.	.	.	.	.	.	.	.	.	.	.	.	.	.	16DTT\	.	.	.	.	.	.	.	.
!	!	!	!	!	!LO:SIC:v:s=4dd\	!	!	!	!	!	!	!	!	!	!	!	!	!	!	!	!	!	!	!	!
8D\	.	.	8d\	.	4cc#\	.	4ff#\	.	.	.	.	.	.	.	.	.	16DTT\	.	.	.	.	.	.	.	.
.	.	.	.	.	.	.	.	.	.	.	.	.	.	.	.	.	16DTT\	.	.	.	.	.	.	.	.
8D\	.	.	8d\	.	.	.	.	.	.	.	.	.	.	.	.	.	16DTT\	.	.	.	.	.	.	.	.
.	.	.	.	.	.	.	.	.	.	.	.	.	.	.	.	.	16DTT\JJ	.	.	.	.	.	.	.	.
*	*	*	*	*	*	*	*	*	*	*	*	*	*	*	*	*	*Xtremolo	*	*	*	*	*	*	*	*
!	!	!	!	!	!	!	!	!	!	!	!	!	!LO:SIC:v:s=4a\	!	!	!	!	!	!	!	!	!	!	!	!
8D\	.	.	8d\	.	4ff#\	.	4aa\	.	4D\	-li	4d\	-li	4g\	-li	4ff#\	-li	4D\	4d\	.	4f#\	.	.	.	.	.
*	*	*	*	*	*	*	*	*	*	*Xij	*	*	*	*	*	*	*	*	*	*	*	*	*	*	*
8D\J	.	.	8d\J	.	.	.	.	.	.	.	.	.	.	.	.	.	.	.	.	.	.	.	.	.	.
*Xtremolo	*	*	*Xtremolo	*	*	*	*	*	*	*	*	*	*	*	*	*	*	*	*	*	*	*	*	*	*
!	!	!	!	!	!	!	!	!	!LO:LB:g=original	!	!	!	!	!	!	!	!	!	!	!	!	!	!	!	!
=37	=37	=37	=37	=37	=37	=37	=37	=37	=37	=37	=37	=37	=37	=37	=37	=37	=37	=37	=37	=37	=37	=37	=37	=37	=37
!LO:TX:t=P:problem=mixed beam	!	!	!	!	!	!	!	!	!	!LO:MO:mod=et	!	!LO:MO:mod=et	!	!LO:MO:mod=et	!	!LO:MO:mod=et	!LO:SIC:v:s=4D\	!	!	!	!	!	!	!	!
8G\L	6	.	8B/L	.	8gg\L	.	8bb\L	.	4G\	&	4B\	&	4g\	&	4ee\	&	4AA/	4e\	.	4g\	.	4ee\	.	4gg\	.
8G\	.	.	8B/	.	8ee\J	.	8gg\J	.	.	.	.	.	.	.	.	.	.	.	.	.	.	.	.	.	.
8A\	4	.	8A/	.	4dd\	.	4ff#\	.	4A\	ter-	2A\	ter-	4f#\	ter-	4dd\	ter-	4D\	4d\	.	4f#\	.	4dd\	.	4ff#\	.
8A\	.	.	8A/	.	.	.	.	.	.	.	.	.	.	.	.	.	.	.	.	.	.	.	.	.	.
8AA/	3	.	8A/	.	4cc#\	.	4ee\	.	4AA/	.	.	.	4e\	.	4cc#\	.	4AA/	4A/	.	4e\	.	4cc#\	.	4ee\	.
8AA/J	.	.	8A/J	.	.	.	.	.	.	.	.	.	.	.	.	.	.	.	.	.	.	.	.	.	.
=38	=38	=38	=38	=38	=38	=38	=38	=38	=38	=38	=38	=38	=38	=38	=38	=38	=38	=38	=38	=38	=38	=38	=38	=38	=38
*tremolo	*	*	*tremolo	*	*	*	*	*	*	*	*	*	*	*	*	*	*tremolo	*	*	*	*	*	*	*	*
8D\L	.	.	8f#\L	.	8a/	.	4ff#\	.	4D\	-ra	4A\	-ra	4f#\	-ra	4dd\	-ra	16DT\LL	2.F#/	.	2.d\	.	2.dd\	.	2.ff#\	.
.	.	.	.	.	.	.	.	.	.	.	.	.	.	.	.	.	16DTT\	.	.	.	.	.	.	.	.
8D\	.	.	8f#\	.	4a/	.	.	.	.	.	.	.	.	.	.	.	16DTT\	.	.	.	.	.	.	.	.
.	.	.	.	.	.	.	.	.	.	.	.	.	.	.	.	.	16DTT\	.	.	.	.	.	.	.	.
8D\	.	.	8f#\	.	.	.	4r	.	4d\	glo-	4A\	glo-	4a\	glo-	4dd\	glo-	16DTT\	.	.	.	.	.	.	.	.
.	.	.	.	.	.	.	.	.	.	.	.	.	.	.	.	.	16DTT\	.	.	.	.	.	.	.	.
8D\	.	.	8f#\	.	4a/	.	.	.	.	.	.	.	.	.	.	.	16DTT\	.	.	.	.	.	.	.	.
.	.	.	.	.	.	.	.	.	.	.	.	.	.	.	.	.	16DTT\	.	.	.	.	.	.	.	.
8D\	.	.	8f#\	.	.	.	(16ff#\LL	.	8d\	-ri-	8A\	-ri-	8a\	-ri-	8dd\	-ri-	16DTT\	.	.	.	.	.	.	.	.
.	.	.	.	.	.	.	16gg\	.	.	.	.	.	.	.	.	.	16DTT\	.	.	.	.	.	.	.	.
8D\J	.	.	8f#\J	.	[8a/	.	16ff#\	.	8d\	-a	8A\	-a	8a\	-a	8dd\	-a	16DTT\	.	.	.	.	.	.	.	.
.	.	.	.	.	.	.	16ee\JJ)	.	.	.	.	.	.	.	.	.	16DTT\JJ	.	.	.	.	.	.	.	.
!	!	!	!	!	!	!	!	!	!	!	!	!	!LO:LB:g=original	!	!	!	!LO:LB:g=original	!	!	!	!	!LO:LB:g=original	!	!	!
=39	=39	=39	=39	=39	=39	=39	=39	=39	=39	=39	=39	=39	=39	=39	=39	=39	=39	=39	=39	=39	=39	=39	=39	=39	=39
8D\L	.	.	8f#\L	.	8a/]	.	4ff#\	.	2d\	tu-	2A\	tu-	2f#\	tu-	2dd\	tu-	16DT\LL	2.F#/	.	2.d\	.	2.ff#\	.	2.aa\	.
.	.	.	.	.	.	.	.	.	.	.	.	.	.	.	.	.	16DTT\	.	.	.	.	.	.	.	.
8D\	.	.	8f#\	.	4a/	.	.	.	.	.	.	.	.	.	.	.	16DTT\	.	.	.	.	.	.	.	.
.	.	.	.	.	.	.	.	.	.	.	.	.	.	.	.	.	16DTT\	.	.	.	.	.	.	.	.
8D\	.	.	8f#\	.	.	.	4dd\	.	.	.	.	.	.	.	.	.	16DTT\	.	.	.	.	.	.	.	.
.	.	.	.	.	.	.	.	.	.	.	.	.	.	.	.	.	16DTT\	.	.	.	.	.	.	.	.
8D\	.	.	8f#\	.	4a/	.	.	.	.	.	.	.	.	.	.	.	16DTT\	.	.	.	.	.	.	.	.
.	.	.	.	.	.	.	.	.	.	.	.	.	.	.	.	.	16DTT\	.	.	.	.	.	.	.	.
8D\	.	.	8f#\	.	.	.	4ff#\	.	4d\	-a	4A\	-a	4f#\	-a	4dd\	-a	16DTT\	.	.	.	.	.	.	.	.
.	.	.	.	.	.	.	.	.	.	.	.	.	.	.	.	.	16DTT\	.	.	.	.	.	.	.	.
8D\J	.	.	8f#\J	.	[8a/	.	.	.	.	.	.	.	.	.	.	.	16DTT\	.	.	.	.	.	.	.	.
.	.	.	.	.	.	.	.	.	.	.	.	.	.	.	.	.	16DTT\JJ	.	.	.	.	.	.	.	.
*	*	*	*Xtremolo	*	*	*	*	*	*	*	*	*	*	*	*	*	*	*	*	*	*	*	*	*	*
!	!	!	!LO:LB:g=original	!	!	!	!	!	!	!	!	!	!	!	!	!	!	!LO:LB:g=original	!	!LO:LB:g=original	!	!	!	!LO:LB:g=original	!
=40	=40	=40	=40	=40	=40	=40	=40	=40	=40	=40	=40	=40	=40	=40	=40	=40	=40	=40	=40	=40	=40	=40	=40	=40	=40
*	*	*	*	*	*	*	*	*	*	*ij	*	*ij	*	*	*	*	*	*	*	*	*	*	*	*	*
8C#/L	6_ 5_	.	8e\L	.	8a/]	.	4aa\	.	4c#\	glo-	4A\	glo-	4g\	glo-	4ee\	glo-	16AAT</LL	2.A/	.	2.e\	.	2.ee\	.	2.aa\	.
.	.	.	.	.	.	.	.	.	.	.	.	.	.	.	.	.	16AATT</	.	.	.	.	.	.	.	.
8C#/	.	.	8e\	.	4a/	.	.	.	.	.	.	.	.	.	.	.	16AATT</	.	.	.	.	.	.	.	.
.	.	.	.	.	.	.	.	.	.	.	.	.	.	.	.	.	16AATT</	.	.	.	.	.	.	.	.
8C#/	.	.	8e\	.	.	.	4r	.	4c#\	-ri-	4A\	-ri-	4g\	-ri-	4ee\	-ri-	16AATT</	.	.	.	.	.	.	.	.
.	.	.	.	.	.	.	.	.	.	.	.	.	.	.	.	.	16AATT</	.	.	.	.	.	.	.	.
8C#/	.	.	8e\	.	4a/	.	.	.	.	.	.	.	.	.	.	.	16AATT</	.	.	.	.	.	.	.	.
.	.	.	.	.	.	.	.	.	.	.	.	.	.	.	.	.	16AATT</	.	.	.	.	.	.	.	.
8C#/	.	.	8e\	.	.	.	(16ee\LL	.	4c#\	-a	4A\	-a	4g\	-a	4ee\	-a	16AATT</	.	.	.	.	.	.	.	.
.	.	.	.	.	.	.	16ff#\	.	.	.	.	.	.	.	.	.	16AATT</	.	.	.	.	.	.	.	.
8C#/J	.	.	8e\J	.	[8a/	.	16ee\	.	.	.	.	.	.	.	.	.	16AATT</	.	.	.	.	.	.	.	.
.	.	.	.	.	.	.	16dd\JJ)	.	.	.	.	.	.	.	.	.	16AATT</JJ	.	.	.	.	.	.	.	.
!	!	!	!	!	!	!	!	!	!	!	!	!	!	!	!LO:LB:g=original	!	!	!	!	!	!	!	!	!	!
=41	=41	=41	=41	=41	=41	=41	=41	=41	=41	=41	=41	=41	=41	=41	=41	=41	=41	=41	=41	=41	=41	=41	=41	=41	=41
*	*	*	*tremolo	*	*	*	*	*	*	*	*	*	*	*	*	*	*	*	*	*	*	*	*	*	*
8C#/L	.	.	8e\L	.	8a/]	.	4ee\	.	2c#\	tu-	2A\	tu-	2g\	tu-	2ee\	tu-	16AAT</LL	2.A/	.	2.e\	.	2.ee\	.	2.aa\	.
.	.	.	.	.	.	.	.	.	.	.	.	.	.	.	.	.	16AATT</	.	.	.	.	.	.	.	.
8C#/	.	.	8e\	.	4a/	.	.	.	.	.	.	.	.	.	.	.	16AATT</	.	.	.	.	.	.	.	.
.	.	.	.	.	.	.	.	.	.	.	.	.	.	.	.	.	16AATT</	.	.	.	.	.	.	.	.
8C#/	.	.	8e\	.	.	.	4cc#\	.	.	.	.	.	.	.	.	.	16AATT</	.	.	.	.	.	.	.	.
.	.	.	.	.	.	.	.	.	.	.	.	.	.	.	.	.	16AATT</	.	.	.	.	.	.	.	.
8C#/	.	.	8e\	.	4a/	.	.	.	.	.	.	.	.	.	.	.	16AATT</	.	.	.	.	.	.	.	.
.	.	.	.	.	.	.	.	.	.	.	.	.	.	.	.	.	16AATT</	.	.	.	.	.	.	.	.
!	!	!	!	!	!	!	!	!	!LO:TX:b:i:t=Verte:mod=	!	!	!	!	!	!	!	!	!	!	!	!	!	!	!	!
8C#/	.	.	8e\	.	.	.	4ee\	.	4c#\	-a	4A\	-a	4g\	-a	4ee\	-a	16AATT</	.	.	.	.	.	.	.	.
*	*	*	*	*	*	*	*	*	*	*Xij	*	*Xij	*	*	*	*	*	*	*	*	*	*	*	*	*
.	.	.	.	.	.	.	.	.	.	.	.	.	.	.	.	.	16AATT</	.	.	.	.	.	.	.	.
8C#/J	.	.	8e\J	.	[8a/	.	.	.	.	.	.	.	.	.	.	.	16AATT</	.	.	.	.	.	.	.	.
.	.	.	.	.	.	.	.	.	.	.	.	.	.	.	.	.	16AATT</JJ	.	.	.	.	.	.	.	.
*Xtremolo	*	*	*	*	*	*	*	*	*	*	*	*	*	*	*	*	*	*	*	*	*	*	*	*	*
!LO:LB:g=original	!	!	!	!	!	!	!	!	!LO:PB:g=original	!	!LO:LB:g=original	!	!	!	!	!	!	!	!	!	!	!	!	!	!
=42	=42	=42	=42	=42	=42	=42	=42	=42	=42	=42	=42	=42	=42	=42	=42	=42	=42	=42	=42	=42	=42	=42	=42	=42	=42
*	*	*	*	*	*	*	*	*	*	*	*	*	*	*ij	*	*	*	*	*	*	*	*	*	*	*
8D\L	x	.	8f#\L	.	8a/]	.	4aa\	.	4d\	glo-	4A\	glo-	4f#\	glo-	4dd\	glo-	16DT\LL	2.d\	.	2.f#\	.	2.ff#\	.	2.aa\	.
.	.	.	.	.	.	.	.	.	.	.	.	.	.	.	.	.	16DTT\	.	.	.	.	.	.	.	.
8D\	.	.	8f#\	.	4a/	.	.	.	.	.	.	.	.	.	.	.	16DTT\	.	.	.	.	.	.	.	.
.	.	.	.	.	.	.	.	.	.	.	.	.	.	.	.	.	16DTT\	.	.	.	.	.	.	.	.
8D\	.	.	8f#\	.	.	.	4r	.	4d\	-ri-	4A\	-ri-	4f#\	-ri-	4dd\	-ri-	16DTT\	.	.	.	.	.	.	.	.
.	.	.	.	.	.	.	.	.	.	.	.	.	.	.	.	.	16DTT\	.	.	.	.	.	.	.	.
8D\	.	.	8f#\	.	4a/	.	.	.	.	.	.	.	.	.	.	.	16DTT\	.	.	.	.	.	.	.	.
.	.	.	.	.	.	.	.	.	.	.	.	.	.	.	.	.	16DTT\	.	.	.	.	.	.	.	.
!	!	!	!	!	!	!	!LO:LB:g=original	!	!	!	!	!	!	!	!	!	!	!	!	!	!	!	!	!	!
8D\	.	.	8f#\	.	.	.	(16ff#\LL	.	4d\	-a	4A\	-a	4f#\	-a	4dd\	-a	16DTT\	.	.	.	.	.	.	.	.
.	.	.	.	.	.	.	16ee\	.	.	.	.	.	.	.	.	.	16DTT\	.	.	.	.	.	.	.	.
8D\J	.	.	8f#\J	.	8a/	.	16ff#\	.	.	.	.	.	.	.	.	.	16DTT\	.	.	.	.	.	.	.	.
.	.	.	.	.	.	.	16gg\JJ)	.	.	.	.	.	.	.	.	.	16DTT\JJ	.	.	.	.	.	.	.	.
!	!	!	!	!	!LO:LB:g=original	!	!	!	!	!	!	!	!	!	!	!	!	!	!	!	!	!	!	!	!
=43	=43	=43	=43	=43	=43	=43	=43	=43	=43	=43	=43	=43	=43	=43	=43	=43	=43	=43	=43	=43	=43	=43	=43	=43	=43
*tremolo	*	*	*	*	*	*	*	*	*	*	*	*	*	*	*	*	*	*	*	*	*	*	*	*	*
8B\L	.	.	8d\L	.	8f#/	.	4ff#\	.	2B\	tu-	2B\	tu-	2f#\	tu-	2dd\	tu-	16DT\LL	2.d\	.	2.f#\	.	2.dd\	.	2.ff#\	.
.	.	.	.	.	.	.	.	.	.	.	.	.	.	.	.	.	16DTT\	.	.	.	.	.	.	.	.
8B\	.	.	8d\	.	4f#/	.	.	.	.	.	.	.	.	.	.	.	16DTT\	.	.	.	.	.	.	.	.
.	.	.	.	.	.	.	.	.	.	.	.	.	.	.	.	.	16DTT\	.	.	.	.	.	.	.	.
8B\	.	.	8d\	.	.	.	4r	.	.	.	.	.	.	.	.	.	16DTT\	.	.	.	.	.	.	.	.
.	.	.	.	.	.	.	.	.	.	.	.	.	.	.	.	.	16DTT\	.	.	.	.	.	.	.	.
8B\	.	.	8d\	.	4f#/	.	.	.	.	.	.	.	.	.	.	.	16DTT\	.	.	.	.	.	.	.	.
.	.	.	.	.	.	.	.	.	.	.	.	.	.	.	.	.	16DTT\	.	.	.	.	.	.	.	.
8B\	.	.	8d\	.	.	.	8dd\L	.	4B\	-a	4B\	-a	4f#\	-a	4dd\	-a	16DTT\	.	.	.	.	.	.	.	.
*	*	*	*	*	*	*	*	*	*	*	*	*	*	*Xij	*	*	*	*	*	*	*	*	*	*	*
.	.	.	.	.	.	.	.	.	.	.	.	.	.	.	.	.	16DTT\	.	.	.	.	.	.	.	.
8B\J	.	.	8d\J	.	8f#/	.	16cc#\L	.	.	.	.	.	.	.	.	.	16DTT\	.	.	.	.	.	.	.	.
.	.	.	.	.	.	.	16dd\JJ	.	.	.	.	.	.	.	.	.	16DTT\JJ	.	.	.	.	.	.	.	.
!	!	!	!	!	!	!	!	!	!	!	!	!	!LO:LB:g=original	!	!	!	!	!	!	!	!	!	!	!	!
=44	=44	=44	=44	=44	=44	=44	=44	=44	=44	=44	=44	=44	=44	=44	=44	=44	=44	=44	=44	=44	=44	=44	=44	=44	=44
8G\L	6	.	8g\L	.	8b\L	.	4ee\	.	4G\	glo-	4B\	glo-	4g\	glo-	4ee\	glo-	16AAT</LL	2.e\	.	2.g\	.	2.ee\	.	2.gg\	.
.	.	.	.	.	.	.	.	.	.	.	.	.	.	.	.	.	16AATT</	.	.	.	.	.	.	.	.
8G\	.	.	8g\	.	8b\	.	.	.	.	.	.	.	.	.	.	.	16AATT</	.	.	.	.	.	.	.	.
.	.	.	.	.	.	.	.	.	.	.	.	.	.	.	.	.	16AATT</	.	.	.	.	.	.	.	.
8G\	.	.	8g\	.	8b\	.	4gg\	.	4G\	-ri-	4B\	-ri-	4g\	-ri-	4ee\	-ri-	16AATT</	.	.	.	.	.	.	.	.
.	.	.	.	.	.	.	.	.	.	.	.	.	.	.	.	.	16AATT</	.	.	.	.	.	.	.	.
8G\	.	.	8g\	.	8b\	.	.	.	.	.	.	.	.	.	.	.	16AATT</	.	.	.	.	.	.	.	.
.	.	.	.	.	.	.	.	.	.	.	.	.	.	.	.	.	16AATT</	.	.	.	.	.	.	.	.
8G\	.	.	8g\	.	8b\	.	4ee\	.	4G\	-a	4B\	-a	4g\	-a	4ee\	-a	16AATT</	.	.	.	.	.	.	.	.
.	.	.	.	.	.	.	.	.	.	.	.	.	.	.	.	.	16AATT</	.	.	.	.	.	.	.	.
8G\J	.	.	8g\J	.	8b\J	.	.	.	.	.	.	.	.	.	.	.	16AATT</	.	.	.	.	.	.	.	.
.	.	.	.	.	.	.	.	.	.	.	.	.	.	.	.	.	16AATT</JJ	.	.	.	.	.	.	.	.
=45	=45	=45	=45	=45	=45	=45	=45	=45	=45	=45	=45	=45	=45	=45	=45	=45	=45	=45	=45	=45	=45	=45	=45	=45	=45
*	*	*	*	*	*2\right	*	*	*	*	*	*	*	*	*	*	*	*	*	*	*	*	*	*	*	*
*	*	*	*	*	*tremolo	*	*	*	*	*	*	*	*	*	*	*	*	*	*	*	*	*	*	*	*
8A\L	4	.	8f#\L	.	8dd\L	.	4aa\	.	2.A\	tu-	2.A\	tu-	2.f#\	tu-	2.dd\	tu-	16DT\LL	2.d\	.	2.f#\	.	2.dd\	.	2.ff#\	.
.	.	.	.	.	.	.	.	.	.	.	.	.	.	.	.	.	16DTT\	.	.	.	.	.	.	.	.
8A\	.	.	8f#\	.	8dd\	.	.	.	.	.	.	.	.	.	.	.	16DTT\	.	.	.	.	.	.	.	.
.	.	.	.	.	.	.	.	.	.	.	.	.	.	.	.	.	16DTT\	.	.	.	.	.	.	.	.
8A\	.	.	8f#\	.	8dd\	.	4ff#\	.	.	.	.	.	.	.	.	.	16DTT\	.	.	.	.	.	.	.	.
.	.	.	.	.	.	.	.	.	.	.	.	.	.	.	.	.	16DTT\	.	.	.	.	.	.	.	.
8A\	.	.	8f#\	.	8dd\	.	.	.	.	.	.	.	.	.	.	.	16DTT\	.	.	.	.	.	.	.	.
.	.	.	.	.	.	.	.	.	.	.	.	.	.	.	.	.	16DTT\	.	.	.	.	.	.	.	.
8A\	.	.	8f#\	.	8dd\	.	4dd\	.	.	.	.	.	.	.	.	.	16DTT\	.	.	.	.	.	.	.	.
.	.	.	.	.	.	.	.	.	.	.	.	.	.	.	.	.	16DTT\	.	.	.	.	.	.	.	.
8A\J	.	.	8f#\J	.	8dd\J	.	.	.	.	.	.	.	.	.	.	.	16DTT\	.	.	.	.	.	.	.	.
.	.	.	.	.	.	.	.	.	.	.	.	.	.	.	.	.	16DTT\JJ	.	.	.	.	.	.	.	.
=46	=46	=46	=46	=46	=46	=46	=46	=46	=46	=46	=46	=46	=46	=46	=46	=46	=46	=46	=46	=46	=46	=46	=46	=46	=46
8AA/L	3	.	8e\L	.	8cc#\L	.	4gg\	.	2.AA/	.	2.A\	.	2.e\	.	2.cc#\	.	16AAT</LL	2.A/	.	2.e\	.	2.cc#\	.	2.ee\	.
.	.	.	.	.	.	.	.	.	.	.	.	.	.	.	.	.	16AATT</	.	.	.	.	.	.	.	.
8AA/	.	.	8e\	.	8cc#\	.	.	.	.	.	.	.	.	.	.	.	16AATT</	.	.	.	.	.	.	.	.
.	.	.	.	.	.	.	.	.	.	.	.	.	.	.	.	.	16AATT</	.	.	.	.	.	.	.	.
8AA/	.	.	8e\	.	8cc#\	.	4ee\	.	.	.	.	.	.	.	.	.	16AATT</	.	.	.	.	.	.	.	.
.	.	.	.	.	.	.	.	.	.	.	.	.	.	.	.	.	16AATT</	.	.	.	.	.	.	.	.
8AA/	.	.	8e\	.	8cc#\	.	.	.	.	.	.	.	.	.	.	.	16AATT</	.	.	.	.	.	.	.	.
.	.	.	.	.	.	.	.	.	.	.	.	.	.	.	.	.	16AATT</	.	.	.	.	.	.	.	.
8AA/	.	.	8e\	.	8cc#\	.	4cc#\	.	.	.	.	.	.	.	.	.	16AATT</	.	.	.	.	.	.	.	.
.	.	.	.	.	.	.	.	.	.	.	.	.	.	.	.	.	16AATT</	.	.	.	.	.	.	.	.
8AA/J	.	.	8e\J	.	8cc#\J	.	.	.	.	.	.	.	.	.	.	.	16AATT</	.	.	.	.	.	.	.	.
.	.	.	.	.	.	.	.	.	.	.	.	.	.	.	.	.	16AATT</JJ	.	.	.	.	.	.	.	.
*Xtremolo	*	*	*Xtremolo	*	*Xtremolo	*	*	*	*	*	*	*	*	*	*	*	*Xtremolo	*	*	*	*	*	*	*	*
=47	=47	=47	=47	=47	=47	=47	=47	=47	=47	=47	=47	=47	=47	=47	=47	=47	=47	=47	=47	=47	=47	=47	=47	=47	=47
!	!	!	!LO:TX:t=P:problem=mixed beam	!	!LO:TX:t=P:problem=mixed beam	!	!LO:TX:t=P:problem=mixed beam	!	!	!	!	!	!	!	!	!	!	!	!	!	!	!	!	!	!
4D\	.	.	8d\L	.	8dd\L	.	8dd\L	.	4D\	-a	4A\	-a	4f#\	-a	4dd\	-a	4D\	4F#/	.	4d\	.	4dd\	.	4ff#\	.
.	.	.	8D/J	.	8d/J	.	8d/J	.	.	.	.	.	.	.	.	.	.	.	.	.	.	.	.	.	.
!	!	!	!LO:SIC:s=8dL|	!	!LO:SIC:s=8ddL|	!	!	!	!	!	!	!	!	!	!	!	!	!	!	!	!	!	!	!	!
8d|\L	.	.	8d\L	.	8dd\L	.	8dd|\L	.	4r	.	4r	.	4r	.	4r	.	4r	4r	.	4r	.	4r	.	4r	.
!	!	!	!LO:SIC:s=8e|	!	!LO:SIC:s=8ee|	!	!	!	!	!	!	!	!	!	!	!	!	!	!	!	!	!	!	!	!
8e|\	.	.	8e\	.	8ee\	.	8ee|\	.	.	.	.	.	.	.	.	.	.	.	.	.	.	.	.	.	.
!	!	!	!LO:SIC:s=8f#|	!	!LO:SIC:s=8ff#|	!	!	!	!	!	!	!	!	!	!	!	!	!	!	!	!	!	!	!	!
8f#|\	.	.	8f#\	.	8ff#\	.	8ff#|\	.	4r	.	4r	.	4r	.	4r	.	4r	4r	.	4r	.	4r	.	4r	.
!	!	!	!LO:SIC:s=8eJ|	!	!LO:SIC:s=8eeJ|	!	!	!	!	!	!	!	!	!	!	!	!	!	!	!	!	!	!	!	!
8e|\J	.	.	8e\J	.	8ee\J	.	8ee|\J	.	.	.	.	.	.	.	.	.	.	.	.	.	.	.	.	.	.
!	!	!	!	!	!	!	!	!	!	!	!	!	!	!	!LO:LB:g=original	!	!	!	!	!	!	!	!	!	!
=48	=48	=48	=48	=48	=48	=48	=48	=48	=48	=48	=48	=48	=48	=48	=48	=48	=48	=48	=48	=48	=48	=48	=48	=48	=48
!	!	!	!LO:SIC:s=8dL|	!	!LO:SIC:s=8ddL|	!	!	!	!	!LO:MO:mod=O-	!	!LO:MO:mod=O-	!	!LO:MO:mod=O-	!	!LO:MO:mod=O-	!	!	!	!	!	!	!	!	!
8d|\L	.	.	8d\L	.	8dd\L	.	8dd|\L	.	2.d\	o-	2.d\	o-	2.dd\	oſ-	2.dd\	o-	4D\	4D/	.	4d\	.	4dd\	.	4dd\	.
!	!	!	!LO:SIC:s=8c#|	!	!LO:SIC:s=8cc#|	!	!	!	!	!	!	!	!	!	!	!	!	!	!	!	!	!	!	!	!
8c#|\	.	.	8c#\J	.	8cc#\	.	8cc#|\	.	.	.	.	.	.	.	.	.	.	.	.	.	.	.	.	.	.
!	!	!	!LO:LB:g=original	!	!LO:SIC:s=8dd|	!	!	!	!	!	!	!	!	!	!	!	!	!	!	!	!	!	!	!	!
!	!	!	!LO:SIC:s=8d|	!	!	!	!	!	!	!	!	!	!	!	!	!	!	!	!	!	!	!	!	!	!
8d|\	.	.	8d/L	.	8dd\	.	8dd|\	.	.	.	.	.	.	.	.	.	4D\	4D/	.	4d\	.	4dd\	.	4dd\	.
!	!	!	!LO:SIC:s=8c#|	!	!LO:SIC:s=8cc#|	!	!	!	!	!	!	!	!	!	!	!	!	!	!	!	!	!	!	!	!
8c#|\	.	.	8c#/	.	8cc#\	.	8cc#|\	.	.	.	.	.	.	.	.	.	.	.	.	.	.	.	.	.	.
!	!	!	!LO:SIC:s=8B|	!	!LO:SIC:s=8b|	!	!	!	!	!	!	!	!	!	!	!	!	!	!	!	!	!	!	!	!
8B|\	.	.	8B/	.	8b\	.	8b|\	.	.	.	.	.	.	.	.	.	4D\	4D/	.	4d\	.	4dd\	.	4dd\	.
!	!	!	!LO:SIC:s=8A#J|	!	!LO:SIC:s=8a#J|	!	!	!	!	!	!	!	!	!	!	!	!	!	!	!	!	!	!	!	!
8A#X|\J	.	.	8A#X/J	.	8a#X\J	.	8a#X|\J	.	.	.	.	.	.	.	.	.	.	.	.	.	.	.	.	.	.
!	!	!	!	!	!	!	!LO:LB:g=original	!	!LO:LB:g=original	!	!LO:LB:g=original	!	!	!	!	!	!	!	!	!	!	!LO:LB:g=original	!	!	!
=49	=49	=49	=49	=49	=49	=49	=49	=49	=49	=49	=49	=49	=49	=49	=49	=49	=49	=49	=49	=49	=49	=49	=49	=49	=49
!LO:TX:t=P:problem=mixed beam	!	!	!	!	!LO:TX:t=P:problem=mixed beam	!	!LO:TX:t=P:problem=mixed beam	!	!	!	!	!	!	!	!	!	!	!	!	!	!	!	!	!	!
!	!	!	!	!	!LO:SIC:s=8bL|	!	!LO:SIC:s=8b|L	!	!	!	!	!	!	!	!	!	!	!	!	!	!	!	!	!	!
8B|\L	.	.	4B/	.	8b\L	.	8b|>\L	.	4d\	-ſan-	4d\	-ſan-	4dd\	-san-	4dd\	-ſan-	4D\	4D/	.	4d\	.	4dd\	.	4dd\	.
!	!	!	!	!	!LO:SIC:s=8BJ|	!	!	!	!	!	!	!	!	!	!	!	!	!	!	!	!	!	!	!	!
8BB|>/J	.	.	.	.	8B/J	.	8B|/J	.	.	.	.	.	.	.	.	.	.	.	.	.	.	.	.	.	.
!	!	!	!LO:SIC:s=8bL|	!	!LO:SIC:s=8bL|	!	!	!	!	!	!	!	!	!	!	!	!	!	!	!	!	!	!	!	!
8B|\L	.	.	8b\L	.	8b\L	.	8b|\L	.	4d\	-na	4d\	-na	4dd\	-na	4dd\	-na	4D\	4D/	.	4d\	.	4dd\	.	4dd\	.
!	!	!	!LO:SIC:s=8cc#|	!	!LO:SIC:s=8cc#|	!	!	!	!	!	!	!	!	!	!	!	!	!	!	!	!	!	!	!	!
8c#|\	.	.	8cc#\	.	8cc#\	.	8cc#|\	.	.	.	.	.	.	.	.	.	.	.	.	.	.	.	.	.	.
!	!	!	!LO:SIC:s=8dd|	!	!LO:SIC:s=8dd|	!	!	!	!	!	!	!	!	!	!	!	!	!	!	!	!	!	!	!	!
8d|\	.	.	8dd\	.	8dd\	.	8dd|\	.	4r	.	4r	.	4r	.	4r	.	4r	4r	.	4r	.	4r	.	4r	.
!	!	!	!LO:SIC:s=8cc#J|	!	!LO:SIC:s=8cc#J|	!	!	!	!	!	!	!	!	!	!	!	!	!	!	!	!	!	!	!	!
8c#|\J	.	.	8cc#\J	.	8cc#\J	.	8cc#|\J	.	.	.	.	.	.	.	.	.	.	.	.	.	.	.	.	.	.
!LO:LB:g=original	!	!	!	!	!LO:LB:g=original	!	!	!	!	!	!	!	!	!	!	!	!	!LO:LB:g=original	!	!LO:LB:g=original	!	!	!	!LO:LB:g=original	!
=50	=50	=50	=50	=50	=50	=50	=50	=50	=50	=50	=50	=50	=50	=50	=50	=50	=50	=50	=50	=50	=50	=50	=50	=50	=50
*	*	*	*	*	*	*	*	*	*	*	*	*	*	*	*	*ij	*	*	*	*	*	*	*	*	*
!LO:SIC:s=8BL|	!	!	!LO:SIC:s=8bL|	!	!LO:SIC:s=8bL|	!	!	!	!	!LO:MO:mod=O-	!	!LO:MO:mod=O-	!	!LO:MO:mod=O-	!	!LO:MO:mod=O-	!	!	!	!	!	!	!	!	!
8B\L	.	.	8b\L	.	8b/L	.	8b|/L	.	2.d\	o-	2.d\	o-	2.dd\	oſ-	2.dd\	o-	4D\	4D/	.	4d\	.	4dd\	.	4dd\	.
!LO:SIC:s=8A#|	!	!	!LO:SIC:s=8a#|	!	!LO:SIC:s=8a#|	!	!	!	!	!	!	!	!	!	!	!	!	!	!	!	!	!	!	!	!
8A#X\	.	.	8a#X\	.	8a#X/	.	8a#X|/	.	.	.	.	.	.	.	.	.	.	.	.	.	.	.	.	.	.
!LO:SIC:s=8B|	!	!	!LO:SIC:s=8b|	!	!LO:SIC:s=8b|	!	!	!	!	!	!	!	!	!	!	!	!	!	!	!	!	!	!	!	!
8B\	.	.	8b\	.	8b/	.	8b|/	.	.	.	.	.	.	.	.	.	4D\	4D/	.	4d\	.	4dd\	.	4dd\	.
!LO:SIC:s=8An|	!	!	!LO:SIC:s=8an|	!	!LO:SIC:s=8an|	!	!	!	!	!	!	!	!	!	!	!	!	!	!	!	!	!	!	!	!
8An\	.	.	8an\	.	8an/	.	8an|/	.	.	.	.	.	.	.	.	.	.	.	.	.	.	.	.	.	.
!LO:SIC:s=8G|	!	!	!LO:SIC:s=8g|	!	!LO:SIC:s=8g|	!	!	!	!	!	!	!	!	!	!	!	!	!	!	!	!	!	!	!	!
8G\	.	.	8g\	.	8g/	.	8g|/	.	.	.	.	.	.	.	.	.	4D\	4D/	.	4d\	.	4dd\	.	4dd\	.
!LO:SIC:s=8F#J|	!	!	!LO:SIC:s=8f#J|	!	!LO:SIC:s=8f#J|	!	!	!	!	!	!	!	!	!	!	!	!	!	!	!	!	!	!	!	!
8F#\J	.	.	8f#\J	.	8f#/J	.	8f#|/J	.	.	.	.	.	.	.	.	.	.	.	.	.	.	.	.	.	.
!	!	!	!	!	!	!	!	!	!	!	!	!	!LO:LB:g=original	!	!	!	!	!	!	!	!	!	!	!	!
=51	=51	=51	=51	=51	=51	=51	=51	=51	=51	=51	=51	=51	=51	=51	=51	=51	=51	=51	=51	=51	=51	=51	=51	=51	=51
!LO:TX:t=P:problem=mixed beam	!	!	!LO:TX:t=P:problem=mixed beam	!	!LO:SIC:s=8gL|	!	!	!	!	!	!	!	!	!	!	!	!	!	!	!	!	!	!	!	!
!LO:SIC:s=8GL|	!	!	!LO:SIC:s=8gL|	!	!	!	!	!	!	!	!	!	!	!	!	!	!	!	!	!	!	!	!	!	!
8G\L	.	.	8g\L	.	8g/L	.	8g|/L	.	4d\	-ſan-	4d\	-ſan-	4dd\	-san-	4dd\	-ſan-	4D\	4D/	.	4d\	.	4dd\	.	4dd\	.
!LO:SIC:s=8GGJ|	!	!	!LO:SIC:s=8GJ|	!	!LO:SIC:s=8GJ|	!	!	!	!	!	!	!	!	!	!	!	!	!	!	!	!	!	!	!	!
8GG/J	.	.	8G/J	.	8G/	.	8G|/J	.	.	.	.	.	.	.	.	.	.	.	.	.	.	.	.	.	.
!LO:SIC:s=8GL|	!	!	!LO:SIC:s=8gL|	!	!LO:SIC:s=8gL|	!	!	!	!	!	!	!	!	!	!	!	!	!	!	!	!	!	!	!	!
8G\L	.	.	8g\L	.	8g/	.	8g|/L	.	4d\	-na	4d\	-na	4dd\	-na	4dd\	-na	4D\	4D/	.	4d\	.	4dd\	.	4dd\	.
!LO:SIC:s=8A|	!	!	!LO:SIC:s=8a|	!	!LO:SIC:s=8a|	!	!	!	!	!	!	!	!	!	!	!	!	!	!	!	!	!	!	!	!
8A\	.	.	8a\	.	8a/	.	8a|/	.	.	.	.	.	.	.	.	.	.	.	.	.	.	.	.	.	.
!LO:SIC:s=8B|	!	!	!LO:SIC:s=8b|	!	!LO:SIC:s=8b|	!	!	!	!	!	!	!	!	!	!	!	!	!	!	!	!	!	!	!	!
8B\	.	.	8b\	.	8b/	.	8b|/	.	4r	.	4r	.	4r	.	4r	.	4r	4r	.	4r	.	4r	.	4r	.
!LO:SIC:s=8AJ|	!	!	!LO:SIC:s=8aJ|	!	!LO:SIC:s=8aJ|	!	!	!	!	!	!	!	!	!	!	!	!	!	!	!	!	!	!	!	!
8A\J	.	.	8a\J	.	8a/J	.	8a|/J	.	.	.	.	.	.	.	.	.	.	.	.	.	.	.	.	.	.
=52	=52	=52	=52	=52	=52	=52	=52	=52	=52	=52	=52	=52	=52	=52	=52	=52	=52	=52	=52	=52	=52	=52	=52	=52	=52
*	*	*	*	*	*	*	*	*	*	*ij	*	*ij	*	*ij	*	*	*tremolo	*	*	*	*	*	*	*	*
!	!	!	!LO:SIC:s=8gL|	!	!LO:SIC:s=8gL|	!	!	!	!	!LO:MO:mod=O-	!	!LO:MO:mod=O-	!	!LO:MO:mod=O-	!	!LO:MO:mod=O-	!	!	!	!	!	!	!	!	!
8G\L	6	.	8g\L	.	8g/L	.	8g|/L	.	8G\L	o-	4B\	o-	4g\	oſ-	4ee\	o-	16AAT</LL	2e\	.	2g\	.	2ee\	.	2gg\	.
.	.	.	.	.	.	.	.	.	.	.	.	.	.	.	.	.	16AATT</	.	.	.	.	.	.	.	.
!	!	!	!LO:SIC:s=8f#|	!	!LO:SIC:s=8f#|	!	!	!	!	!	!	!	!	!	!	!	!	!	!	!	!	!	!	!	!
8F#\	.	.	8f#\	.	8f#/	.	8f#|/	.	8F#\J	.	.	.	.	.	.	.	16AATT</	.	.	.	.	.	.	.	.
.	.	.	.	.	.	.	.	.	.	.	.	.	.	.	.	.	16AATT</	.	.	.	.	.	.	.	.
!	!	!	!LO:SIC:s=8g|	!	!LO:SIC:s=8g|	!	!	!	!	!	!	!	!	!	!	!	!	!	!	!	!	!	!	!	!
8G\	.	.	8g\	.	8g/	.	8g|/	.	8G\L	-ſan-	4B\	-ſan-	4g\	-san-	4ee\	-ſan-	16AATT</	.	.	.	.	.	.	.	.
.	.	.	.	.	.	.	.	.	.	.	.	.	.	.	.	.	16AATT</	.	.	.	.	.	.	.	.
!	!	!	!LO:SIC:s=8a|	!	!LO:SIC:s=8a|	!	!	!	!	!	!	!	!	!	!	!	!	!	!	!	!	!	!	!	!
8A\	.	.	8a\	.	8a/	.	8a|/	.	8A\J	.	.	.	.	.	.	.	16AATT</	.	.	.	.	.	.	.	.
.	.	.	.	.	.	.	.	.	.	.	.	.	.	.	.	.	16AATT</JJ	.	.	.	.	.	.	.	.
*	*	*	*	*	*	*	*	*	*	*	*	*	*	*	*	*	*Xtremolo	*	*	*	*	*	*	*	*
!	!	!	!LO:SIC:s=8b|	!	!LO:SIC:s=8b|	!	!	!	!	!	!	!	!	!	!	!	!	!	!	!	!	!LO:SIC:v:s=4dd\	!	!	!
8B\	3_	.	8b\	.	8b/	.	8b|/	.	8B\L	-na	4B\	-na	4f#\	-na	4dd\	-na	4D\	4d\	.	4f#\	.	4cc#\	.	4ff#\	.
*	*	*	*	*	*	*	*	*	*	*Xij	*	*Xij	*	*Xij	*	*Xij	*	*	*	*	*	*	*	*	*
!	!	!	!LO:SIC:s=8g#J|	!	!LO:SIC:s=8g#J|	!	!	!	!	!	!	!	!	!	!	!	!	!	!	!	!	!	!	!	!
8G#X\J	.	.	8g#X\J	.	8g#X/J	.	8g#X|/J	.	8G#X\J	.	.	.	.	.	.	.	.	.	.	.	.	.	.	.	.
!	!	!	!LO:LB:g=original	!	!	!	!	!	!	!	!	!	!	!	!	!	!LO:LB:g=original	!	!	!	!	!	!	!	!
=53	=53	=53	=53	=53	=53	=53	=53	=53	=53	=53	=53	=53	=53	=53	=53	=53	=53	=53	=53	=53	=53	=53	=53	=53	=53
*	*	*	*	*	*	*	*	*	*	*	*	*	*	*	*	*	*tremolo	*	*	*	*	*	*	*	*
8A\L	3_	.	8a\L	.	8a/L	.	8a/L	.	8A\L	in	2A\	in	2e\	in	2cc#\	in	16AAT</LL	2A/	.	2e\	.	2cc#\	.	2ee\	.
.	.	.	.	.	.	.	.	.	.	.	.	.	.	.	.	.	16AATT</	.	.	.	.	.	.	.	.
8Gn\	.	.	8g\	.	8gn/	.	8gn/	.	8Gn\	.	.	.	.	.	.	.	16AATT</	.	.	.	.	.	.	.	.
.	.	.	.	.	.	.	.	.	.	.	.	.	.	.	.	.	16AATT</	.	.	.	.	.	.	.	.
8F#\	x	.	8f#\	.	8f#/	.	8f#/	.	8F#\	.	.	.	.	.	.	.	16AATT</	.	.	.	.	.	.	.	.
.	.	.	.	.	.	.	.	.	.	.	.	.	.	.	.	.	16AATT</	.	.	.	.	.	.	.	.
8E\J	.	.	8e\J	.	8e/J	.	8e/J	.	8E\J	.	.	.	.	.	.	.	16AATT</	.	.	.	.	.	.	.	.
.	.	.	.	.	.	.	.	.	.	.	.	.	.	.	.	.	16AATT</JJ	.	.	.	.	.	.	.	.
*	*	*	*	*	*	*	*	*	*	*	*	*	*	*	*	*	*Xtremolo	*	*	*	*	*	*	*	*
!	!	!	!	!	!	!	!	!	!	!	!	!	!	!	!	!	!	!	!	!	!	!	!	!LO:SIC:v:s=4ff#\	!
8D\L	.	.	8d/L	.	8d/L	.	8d/L	.	8D\L	ex-	4A\	ex-	4f#\	ex-	4dd\	ex-	4D\	4d\	.	4f#\	.	4dd\	.	4ee\	.
16E\L	.	.	8A/J	.	16e/L	.	16e/L	.	8F#\J	.	.	.	.	.	.	.	.	.	.	.	.	.	.	.	.
16F#\JJ	.	.	.	.	16f#/JJ	.	16f#/JJ	.	.	.	.	.	.	.	.	.	.	.	.	.	.	.	.	.	.
!	!	!	!	!	!	!	!LO:LB:g=original	!	!LO:LB:g=original	!	!	!	!	!	!	!	!	!	!	!	!	!	!	!	!
=54	=54	=54	=54	=54	=54	=54	=54	=54	=54	=54	=54	=54	=54	=54	=54	=54	=54	=54	=54	=54	=54	=54	=54	=54	=54
!LO:TX:t=P:problem=mixed beam	!	!	!	!	!	!	!	!	!	!	!	!	!	!	!	!	!	!	!	!	!	!	!	!	!
8G\L	6	.	4B/	.	4g/	.	8g\L	.	4G\	-cel-	4B\	-cel-	4g\	-cel-	4ee\	-cel-	4AA/	4e\	.	4g\	.	4ee\	.	4gg\	.
8G\	.	.	.	.	.	.	8ee\J	.	.	.	.	.	.	.	.	.	.	.	.	.	.	.	.	.	.
8A\	4	.	4A/	.	4f#/	.	4dd\	.	4A\	.	2A\	.	4f#\	.	4dd\	.	4D\	4d\	.	4f#\	.	4dd\	.	4ff#\	.
8A\	.	.	.	.	.	.	.	.	.	.	.	.	.	.	.	.	.	.	.	.	.	.	.	.	.
8AA/	3	.	4A/	.	4e/	.	4cc#\	.	4AA/	.	.	.	4e\	.	4cc#\	.	4AA/	4A/	.	4e\	.	4cc#\	.	4ee\	.
8AA/J	.	.	.	.	.	.	.	.	.	.	.	.	.	.	.	.	.	.	.	.	.	.	.	.	.
!LO:LB:g=original	!	!	!	!	!	!	!	!	!	!	!LO:LB:g=original	!	!	!	!LO:LB:g=original	!	!	!	!	!	!	!	!	!	!
=55	=55	=55	=55	=55	=55	=55	=55	=55	=55	=55	=55	=55	=55	=55	=55	=55	=55	=55	=55	=55	=55	=55	=55	=55	=55
*	*	*	*^	*	*	*	*	*	*	*	*	*	*	*	*	*	*	*	*	*	*	*	*	*	*
*	*	*	*tremolo	*	*	*	*	*	*	*	*	*	*	*	*	*	*	*	*	*	*	*	*	*	*	*
8D\L	.	.	8A/L	8F#\L	.	4f#/	.	4dd\	.	4D\	-sis	4A\	-sis	4f#\	-sis	4dd\	-sis	8D\L	8F#/L	.	8d\L	.	2.dd\	.	2.ff#\	.
8D\	.	.	8A/	8F#\	.	.	.	.	.	.	.	.	.	.	.	.	.	8D\J	8F#/J	.	8d\J	.	.	.	.	.
8D\	.	.	8A/	8F#\	.	4r	.	4r	.	4r	.	4r	.	4r	.	4r	.	4D\	4F#/	.	4d\	.	.	.	.	.
8D\	.	.	8A/	8F#\	.	.	.	.	.	.	.	.	.	.	.	.	.	.	.	.	.	.	.	.	.	.
!	!	!	!	!	!	!LO:LB:g=original	!	!	!	!	!	!	!	!	!	!	!	!	!	!	!	!	!	!	!	!
!	!	!	!	!	!	!LO:SIC:s=(16ff#LL	!	!	!	!	!	!	!	!	!	!	!	!	!	!	!	!	!	!	!	!
8D\	.	.	8A/	8F#\	.	16ff#\LL	.	(16aa\LL	.	4r	.	4r	.	4r	.	4r	.	4r	4r	.	4r	.	.	.	.	.
.	.	.	.	.	.	16ee\	.	16gg\	.	.	.	.	.	.	.	.	.	.	.	.	.	.	.	.	.	.
8D\J	.	.	8A/J	8F#\J	.	16ff#\	.	16aa\	.	.	.	.	.	.	.	.	.	.	.	.	.	.	.	.	.	.
!	!	!	!	!	!	!LO:SIC:s=16ggJJ)	!	!	!	!	!	!	!	!	!	!	!	!	!	!	!	!	!	!	!	!
.	.	.	.	.	.	16gg\JJ	.	16bb\JJ)	.	.	.	.	.	.	.	.	.	.	.	.	.	.	.	.	.	.
=56	=56	=56	=56	=56	=56	=56	=56	=56	=56	=56	=56	=56	=56	=56	=56	=56	=56	=56	=56	=56	=56	=56	=56	=56	=56	=56
*tremolo	*	*	*	*	*	*	*	*	*	*	*	*	*	*	*	*	*	*	*	*	*	*	*	*	*	*
8D\L	.	.	8A/L	8F#\L	.	4ff#\	.	4aa\	.	0.r	.	0.r	.	0.r	.	0.r	.	8D\L	8F#/L	.	8d\L	.	2.dd\	.	2.ff#\	.
8D\	.	.	8A/	8F#\	.	.	.	.	.	.	.	.	.	.	.	.	.	8D\J	8F#/J	.	8d\J	.	.	.	.	.
8D\	.	.	8A/	8F#\	.	4r	.	4r	.	.	.	.	.	.	.	.	.	4D\	4F#/	.	4d\	.	.	.	.	.
8D\	.	.	8A/	8F#\	.	.	.	.	.	.	.	.	.	.	.	.	.	.	.	.	.	.	.	.	.	.
!	!	!	!	!	!	!LO:SIC:s=(16ddLL	!	!	!	!	!	!	!	!	!	!	!	!	!	!	!	!	!	!	!	!
8D\	.	.	8A/	8F#\	.	16dd\LL	.	(16ff#\LL	.	.	.	.	.	.	.	.	.	4r	4r	.	4r	.	.	.	.	.
.	.	.	.	.	.	16cc#\	.	16ee\	.	.	.	.	.	.	.	.	.	.	.	.	.	.	.	.	.	.
8D\J	.	.	8A/J	8F#\J	.	16dd\	.	16ff#\	.	.	.	.	.	.	.	.	.	.	.	.	.	.	.	.	.	.
!	!	!	!	!	!	!LO:SIC:s=16eeJJ)	!	!	!	!	!	!	!	!	!	!	!	!	!	!	!	!	!	!	!	!
.	.	.	.	.	.	16ee\JJ	.	16gg\JJ)	.	.	.	.	.	.	.	.	.	.	.	.	.	.	.	.	.	.
!	!	!	!	!	!	!	!	!	!	!	!	!	!	!	!	!	!	!	!LO:LB:g=original	!	!LO:LB:g=original	!	!LO:LB:g=original	!	!	!
=57	=57	=57	=57	=57	=57	=57	=57	=57	=57	=57	=57	=57	=57	=57	=57	=57	=57	=57	=57	=57	=57	=57	=57	=57	=57	=57
8D\L	.	.	8A/L	8F#\L	.	4dd\	.	4ff#\	.	.	.	.	.	.	.	.	.	8D\L	8F#/L	.	8d\L	.	2.dd\	.	2.ff#\	.
8D\	.	.	8A/	8F#\	.	.	.	.	.	.	.	.	.	.	.	.	.	8D\J	8F#/J	.	8d\J	.	.	.	.	.
8D\	.	.	8A/	8F#\	.	4r	.	4r	.	.	.	.	.	.	.	.	.	4D\	4F#/	.	4d\	.	.	.	.	.
8D\	.	.	8A/	8F#\	.	.	.	.	.	.	.	.	.	.	.	.	.	.	.	.	.	.	.	.	.	.
!	!	!	!	!	!	!LO:SIC:s=(16f#LL	!	!	!	!	!	!	!	!	!	!	!	!	!	!	!	!	!	!	!	!
8D\	.	.	8A/	8F#\	.	16f#/LL	.	(16dd\LL	.	.	.	.	.	.	.	.	.	4r	4r	.	4r	.	.	.	.	.
.	.	.	.	.	.	16e/	.	16cc#\	.	.	.	.	.	.	.	.	.	.	.	.	.	.	.	.	.	.
8D\J	.	.	8A/J	8F#\J	.	16f#/	.	16dd\	.	.	.	.	.	.	.	.	.	.	.	.	.	.	.	.	.	.
!	!	!	!	!	!	!LO:SIC:s=16gJJ)	!	!	!	!	!	!	!	!	!	!	!	!	!	!	!	!	!	!	!	!
.	.	.	.	.	.	16g/JJ	.	16ee\JJ)	.	.	.	.	.	.	.	.	.	.	.	.	.	.	.	.	.	.
!	!	!	!	!	!	!	!	!	!	!	!	!	!	!	!	!	!	!	!	!	!	!	!	!	!LO:LB:g=original	!
=58	=58	=58	=58	=58	=58	=58	=58	=58	=58	=58	=58	=58	=58	=58	=58	=58	=58	=58	=58	=58	=58	=58	=58	=58	=58	=58
8D\L	.	.	8A/L	8F#\L	.	4f#/	.	4dd\	.	.	.	.	.	.	.	.	.	8D\L	8F#/L	.	8d\L	.	2.dd\	.	2.ff#\	.
8D\	.	.	8A/	8F#\	.	.	.	.	.	.	.	.	.	.	.	.	.	8D\J	8F#/J	.	8d\J	.	.	.	.	.
8D\	.	.	8A/	8F#\	.	4dd\	.	4ff#\	.	.	.	.	.	.	.	.	.	4D\	4F#/	.	4d\	.	.	.	.	.
8D\	.	.	8A/	8F#\	.	.	.	.	.	.	.	.	.	.	.	.	.	.	.	.	.	.	.	.	.	.
8D\	.	.	8A/	8F#\	.	4ff#\	.	4aa\	.	.	.	.	.	.	.	.	.	4r	4r	.	4r	.	.	.	.	.
8D\J	.	.	8A/J	8F#\J	.	.	.	.	.	.	.	.	.	.	.	.	.	.	.	.	.	.	.	.	.	.
*Xtremolo	*	*	*	*Xtremolo	*	*	*	*	*	*	*	*	*	*	*	*	*	*	*	*	*	*	*	*	*	*
=59	=59	=59	=59	=59	=59	=59	=59	=59	=59	=59	=59	=59	=59	=59	=59	=59	=59	=59	=59	=59	=59	=59	=59	=59	=59	=59
4D\	.	.	4A/	4F#\	.	4dd\	.	4ff#\	.	.	.	.	.	.	.	.	.	4D\	4F#/	.	4d\	.	4dd\	.	4ff#\	.
!	!	!	!	!	!	!	!	!LO:LB:g=original	!	!	!	!	!	!	!	!	!	!	!	!	!	!	!	!	!	!
4F#\	.	.	4A/	4F#\	.	4dd 4f#\	.	4ff# 4a 4d\	.	.	.	.	.	.	.	.	.	4D\	4F#/	.	4d\	.	4dd\	.	4ff#\	.
4A\	.	.	4A/	4F#\	.	4dd 4f#\	.	4ff# 4a 4d\	.	.	.	.	.	.	.	.	.	4D\	4F#/	.	4d\	.	4dd\	.	4ff#\	.
=60	=60	=60	=60	=60	=60	=60	=60	=60	=60	=60	=60	=60	=60	=60	=60	=60	=60	=60	=60	=60	=60	=60	=60	=60	=60	=60
2D\	.	.	2A/	2F#\	.	2dd 2f#\	.	2ff# 2a 2d\	.	2.r	.	2.r	.	2.r	.	2.r	.	2D\	2F#/	.	2d\	.	2dd\	.	2ff#\	.
!	!	!	!	!	!	!	!	!LO:TX:b:i:t=Verte Benedictus:mod=	!	!	!	!	!	!	!LO:TX:b:i:t=Verte Benedictus	!	!	!	!	!	!	!	!	!	!	!
4r	.	.	4r	4ryy	.	4r	.	4r	.	.	.	.	.	.	.	.	.	4r	4r	.	4r	.	4r	.	4r	.
*	*	*	*v	*v	*	*	*	*	*	*	*	*	*	*	*	*	*	*	*	*	*	*	*	*	*	*
==	==	==	==	==	==	==	==	==	==	==	==	==	==	==	==	==	==	==	==	==	==	==	==	==	==
*-	*-	*-	*-	*-	*-	*-	*-	*-	*-	*-	*-	*-	*-	*-	*-	*-	*-	*-	*-	*-	*-	*-	*-	*-	*-
!!!system-decoration: [(g1)][(g2)]<s5>[(g3)][(g4)]<s13>
!!!RDF**kern: > = above
!!!RDF**kern: < = below
!!!RDF**kern: | = vertical stroke
!!LO:MO:ori
!!!RDF**dynam: f = "f:"
!!LO:MO:end
!!!filter-modern: kernview -v 9 | shed -k -e "s/[T<]//g" | kernview -v 1-$
!!!filter-modern: sic -sq | tie -s | autostem -r | shed -e "s/LO:DY:(a|b|rj)/LO:dy:$1/L" | shed -e "s/TX(.*):t=P:/tx$1:t=P:/LG" | shed -e "s/^(\d+[\/\\]right)/$1yy/I; s/^(\d+[\/\\]left)/$1yy/I" | humtr -p | modori -m
!!!ENC: Marcin Jachim
!!!END: 2020-07-05
!!!ENC: Andrzej Kubiczek
!!!END: 2022-01-22
!!!ENC-modern: Marta Lawrence
!!!END-modern: 2022-07-25
!!!YEC: Copyright 2022 Narodowy Instytut Fryderyka Chopina (https://polishscores.org)
!!!YEM: Licence CC BY 4.0 (https://creativecommons.org/licenses/by/4.0)
